!!!!SEGMENT: pl-stab--3a--001-002_dankowski-adalbert--vespere-pastorales-confitebor.krn
!!!cenid: 18xx:3484
!!!COM: Dankowski, Adalbert
!!!COM-rismID: pe30000793
!!!CDT: ~1760-~1836
!!!CNT: Polish
!!!OPR: Vespere Pastorales
!!!OTL: Confitebor
!!!OMV: 002
!!!PDT: 1804
!!!AGN: Sacred; Vespers
!!!YEC: Copyright 2022 Narodowy Instytut Fryderyka Chopina (https://polishscores.org)
!!!YEM: License CC-BY-4.0 (https://creativecommons.org/licenses/by/4.0)
!!!SMS-siglum: PL-STAb
!!!SMS-shelfmark: 3a
!!!SMS-shelfwork: 001-002 M
!!!SMS-variant:
!!!SMS-altvar:
!!!NIFC-rismSourceID: 301050554
!!!NIFC-rismChildID: 301050554
!!!NIFC-islandoraID: pl-stab:928
!!!URL-pdf-islandora: https://repozytorium.nifc.pl/islandora/object/pl-stab%3A928/datastream/PDF/view
!!!URL-scan: https://polish.musicsources.pl/pl/lokalizacje/galeria/rekopisy/4500 @EN{Scan on Polish Music Sources Website} @PL{Skany w portalu Dziedzictwo Muzyki Polskiej w otwartym dostępie}
!!!IIIF:
!!!ONB-nifc: UWAGA: części Nieszporów: 1. Dixit Dominus, 2. Confitebor, 3. Beatus vir, 4. Laudate pueri, 5. Magnificat, 6. Fecit potentiam, 7. Gloria
!!!AIN: 1 alto 1 bass 2 cor 1 organ 1 soprn 1 tenor 2 violn
!!!OMD:
!!!OMD-mod: Allegro moderato
!!!key: G
**kern	**fba	**dynam	**kern	**dynam	**kern	**dynam	**kern	**text	**mod-text	**kern	**text	**mod-text	**kern	**text	**mod-text	**kern	**text	**mod-text	**kern	**kern
*	*	*	*group3	*	*group3	*	*group2	*	*	*group2	*	*	*group2	*	*	*group2	*	*	*group1	*group1
*part9	*	*	*part8	*	*part7	*	*part6	*	*	*part5	*	*	*part4	*	*	*part3	*	*	*part2	*part1
*staff9	*	*	*staff8	*	*staff7	*	*staff6	*	*	*staff5	*	*	*staff4	*	*	*staff3	*	*	*staff2	*staff1
*I"Organo	*	*	*I"Violino Secondo	*	*I"Violino Primo	*	*I"Baſso	*	*	*I"Tenor	*	*	*I"Alto	*	*	*I"Canto	*	*	*I"Cornu Secondo Ex G:	*I"Cornu Primo Ex G.
*	*	*	*mI"Violino II	*	*mI"Violino I	*	*mI"Basso	*	*	*mI"Tenore	*	*	*	*	*	*mI"Soprano	*	*	*mI"Corno II in G	*mI"Corno I in G
*I'org	*	*	*I'vl 2	*	*I'vl 1	*	*I'B	*	*	*I'T	*	*	*I'A	*	*	*I'S	*	*	*I'cor 2 in G	*I'cor 1 in G
*Iorgan	*	*	*Ivioln	*	*Ivioln	*	*Ibass	*	*	*Itenor	*	*	*Ialto	*	*	*Isoprn	*	*	*Icor	*Icor
*ICklav	*	*	*ICstr	*	*ICstr	*	*ICvox	*	*	*ICvox	*	*	*ICvox	*	*	*ICvox	*	*	*ICbras	*ICbras
*IGcont	*	*	*IGacmp	*	*IGacmp	*	*IGcoro	*	*	*IGcoro	*	*	*IGcoro	*	*	*IGcoro	*	*	*IGacmp	*IGacmp
*clefF4	*	*	*clefG2	*	*clefG2	*	*clefF4	*	*	*clefC4	*	*	*clefC3	*	*	*clefC1	*	*	*clefG2	*clefG2
*	*	*	*	*	*	*	*	*	*	*mclefGv2	*	*	*mclefG2	*	*	*mclefG2	*	*	*	*
*	*	*	*	*	*	*	*	*	*	*	*	*	*	*	*	*	*	*	*ITrd3c5	*ITrd3c5
*k[f#]	*	*	*k[f#]	*	*k[f#]	*	*k[f#]	*	*	*k[f#]	*	*	*k[f#]	*	*	*k[f#]	*	*	*k[f#]	*k[f#]
*G:	*	*	*G:	*	*G:	*	*G:	*	*	*G:	*	*	*G:	*	*	*G:	*	*	*G:	*G:
*M3/4	*	*	*M3/4	*	*M3/4	*	*M3/4	*	*	*M3/4	*	*	*M3/4	*	*	*M3/4	*	*	*M3/4	*M3/4
!	!	!	!	!	!	!null	!	!	!	!	!	!	!LO:TX:a:i:t= :mod=Solo	!	!	!	!	!	!	!LO:TX:a:B:t=allo moderato:mod=
!LO:TX:a:B:t=allo moderato:mod=	!	!	!LO:TX:a:B:t=allo Moderato:mod=	!	!LO:TX:a:B:t=allo moder&colon;:mod=	!LO:MO:null:mod=p	!LO:TX:a:B:t=allo mod.:mod=	!	!	!LO:TX:a:B:t=allo mod.:mod=	!	!	!LO:TX:a:B:t=allo mod:mod=	!	!	!LO:TX:a:B:t=allo mode:mod=	!	!	!LO:TX:a:B:t=allo moderato:mod=	!
4r	.	.	4r	.	4d/	.	4r	.	.	4r	.	.	4d\	Con-	Con-	4r	.	.	4r	4r
=1	=1	=1	=1	=1	=1	=1	=1	=1	=1	=1	=1	=1	=1	=1	=1	=1	=1	=1	=1	=1
!	!	!LO:MO:mod=!LO&colon;DY&colon;ed=brack	!	!	!	!	!	!	!	!	!	!	!	!	!	!	!	!	!	!
!	!	!null	!	!	!	!	!	!	!	!	!	!	!	!	!	!	!	!	!	!
!	!	!LO:MO:null:mod=p	!	!LO:DY:a:t=p&colon;:mod=%s	!	!	!	!	!	!	!	!	!LO:TX:a:t=Solo:mod=	!	!	!	!	!	!	!
4GG/	.	.	4B/ 4d/	p	4g/	.	0.r	.	.	0.r	.	.	4g\	-fi-	-fi-	0.r	.	.	0.r	0.r
4G\	.	.	4B/ 4d/	.	8b/L	.	.	.	.	.	.	.	8b\L	-te-	-te-	.	.	.	.	.
.	.	.	.	.	8g/	.	.	.	.	.	.	.	8g\J	.	.	.	.	.	.	.
4F#\	5	.	4A/ 4d/	.	8cc/	.	.	.	.	.	.	.	8cc\L	-bor	-bor	.	.	.	.	.
.	.	.	.	.	8a/J	.	.	.	.	.	.	.	8a\J	.	.	.	.	.	.	.
=2	=2	=2	=2	=2	=2	=2	=2	=2	=2	=2	=2	=2	=2	=2	=2	=2	=2	=2	=2	=2
!	!	!	!	!	!LO:MO:mod=*null:null	!	!	!	!	!	!	!	!LO:MO:mod=*null:null	!	!	!	!	!	!	!
*	*	*	*	*	*2\right	*	*	*	*	*	*	*	*2\right	*	*	*	*	*	*	*
!LO:TX:a:t=Solo:mod=	!	!	!	!	!	!LO:DY:a:t=p.:mod= 	!	!	!	!	!	!	!	!	!	!	!	!	!	!
4G\	.	.	4B/ 4d/	.	2dd\	p	.	.	.	.	.	.	2dd\	ti-	ti-	.	.	.	.	.
4GG/	.	.	4B/ 4d/	.	.	.	.	.	.	.	.	.	.	.	.	.	.	.	.	.
4BB/	6	.	4B/ 4d/	.	8b/L	.	.	.	.	.	.	.	8b\L	-bi	-bi	.	.	.	.	.
.	.	.	.	.	8g/J	.	.	.	.	.	.	.	8g\J	.	.	.	.	.	.	.
=3	=3	=3	=3	=3	=3	=3	=3	=3	=3	=3	=3	=3	=3	=3	=3	=3	=3	=3	=3	=3
4C/	6:	.	4e/	.	8a/L	.	.	.	.	.	.	.	8a\L	Do-	Do-	.	.	.	.	.
.	.	.	.	.	8b/	.	.	.	.	.	.	.	8b\	.	.	.	.	.	.	.
4C/	.	.	4e/	.	8cc/	.	.	.	.	.	.	.	8cc\	.	.	.	.	.	.	.
.	.	.	.	.	8a/	.	.	.	.	.	.	.	8a\J	.	.	.	.	.	.	.
4D\	.	.	4c/	.	8g/	.	.	.	.	.	.	.	8g\L	-mi-	-mi-	.	.	.	.	.
.	.	.	.	.	8f#/J	.	.	.	.	.	.	.	8f#\J	.	.	.	.	.	.	.
=4	=4	=4	=4	=4	=4	=4	=4	=4	=4	=4	=4	=4	=4	=4	=4	=4	=4	=4	=4	=4
4G\	.	.	4B/	.	8g/L	.	.	.	.	.	.	.	2g\	-ne	-ne	.	.	.	.	.
.	.	.	.	.	8b/J	.	.	.	.	.	.	.	.	.	.	.	.	.	.	.
4GG/	.	.	4B/	.	4g/	.	.	.	.	.	.	.	.	.	.	.	.	.	.	.
4r	.	.	4r	.	4d/	.	.	.	.	.	.	.	4d\	in	in	.	.	.	.	.
=5	=5	=5	=5	=5	=5	=5	=5	=5	=5	=5	=5	=5	=5	=5	=5	=5	=5	=5	=5	=5
4GG/	.	.	4B/ 4d/	.	4g/	.	0.r	.	.	0.r	.	.	4g\	to-	to-	0.r	.	.	0.r	0.r
4G\	.	.	4B/ 4d/	.	8b/L	.	.	.	.	.	.	.	8b\L	.	.	.	.	.	.	.
.	.	.	.	.	8g/	.	.	.	.	.	.	.	8g\J	.	.	.	.	.	.	.
4F#\	6 5	.	4A/ 4d/	.	8cc/	.	.	.	.	.	.	.	8cc\L	-to	-to	.	.	.	.	.
.	.	.	.	.	8a/J	.	.	.	.	.	.	.	8a\J	.	.	.	.	.	.	.
!	!	!	!	!	!	!	!	!	!	!	!	!	!LO:LB:g=original	!	!	!	!	!	!	!
=6	=6	=6	=6	=6	=6	=6	=6	=6	=6	=6	=6	=6	=6	=6	=6	=6	=6	=6	=6	=6
4G\	.	.	4B/ 4d/	.	2dd\	.	.	.	.	.	.	.	2dd\	Cor-	cor-	.	.	.	.	.
4GG/	.	.	4B/ 4d/	.	.	.	.	.	.	.	.	.	.	.	.	.	.	.	.	.
4BB/	6	.	4B/ 4d/	.	8b/L	.	.	.	.	.	.	.	8b\L	-de	-de	.	.	.	.	.
.	.	.	.	.	8g/J	.	.	.	.	.	.	.	8g\J	.	.	.	.	.	.	.
=7	=7	=7	=7	=7	=7	=7	=7	=7	=7	=7	=7	=7	=7	=7	=7	=7	=7	=7	=7	=7
4C/	6	.	4e/	.	8a/L	.	.	.	.	.	.	.	8a\L	me-	me-	.	.	.	.	.
.	.	.	.	.	8b/	.	.	.	.	.	.	.	8b\	.	.	.	.	.	.	.
4C/	.	.	4e/	.	8cc/	.	.	.	.	.	.	.	8cc\	.	.	.	.	.	.	.
.	.	.	.	.	8a/	.	.	.	.	.	.	.	8a\J	.	.	.	.	.	.	.
!	!	!	!	!	!LO:SIC:o=8g/	!	!	!	!	!	!	!	!	!	!	!	!	!	!	!
4C#X/	5	.	4e/	.	8b	.	.	.	.	.	.	.	8b\L	.	.	.	.	.	.	.
!	!	!	!	!	!LO:SIC:o=8f#/J	!	!	!	!	!	!	!	!	!	!	!	!	!	!	!
.	.	.	.	.	8gJ	.	.	.	.	.	.	.	8g\J	.	.	.	.	.	.	.
!	!	!	!	!	!LO:LB:g=original	!	!	!	!	!	!	!	!	!	!	!	!	!	!	!
=8	=8	=8	=8	=8	=8	=8	=8	=8	=8	=8	=8	=8	=8	=8	=8	=8	=8	=8	=8	=8
4D\	.	.	4B/	.	4g/	.	.	.	.	.	.	.	2f#\	-o	-o	.	.	.	.	.
4DD/	.	.	4A/	.	4f#/	.	.	.	.	.	.	.	.	.	.	.	.	.	.	.
4r	.	.	4r	.	4d/	.	.	.	.	.	.	.	4d\	in	in	.	.	.	.	.
!LO:LB:g=original	!	!	!LO:LB:g=original	!	!	!	!	!	!	!	!	!	!	!	!	!	!	!	!	!
=9	=9	=9	=9	=9	=9	=9	=9	=9	=9	=9	=9	=9	=9	=9	=9	=9	=9	=9	=9	=9
!LO:MO:mod=*null:null	!	!	!	!	!	!	!	!	!	!	!	!	!	!	!	!	!	!	!	!
*2\right	*	*	*	*	*	*	*	*	*	*	*	*	*	*	*	*	*	*	*	*
2F#\	6 5	.	4A/ 4d/	.	8cc\L	.	0.r	.	.	0.r	.	.	8cc\L	Con-	con-	0.r	.	.	0.r	0.r
.	.	.	.	.	8dd\	.	.	.	.	.	.	.	8dd\	.	.	.	.	.	.	.
.	.	.	4A/ 4d/	.	8cc\	.	.	.	.	.	.	.	8cc\	.	.	.	.	.	.	.
.	.	.	.	.	8a\J	.	.	.	.	.	.	.	8a\J	.	.	.	.	.	.	.
4G\	.	.	4B/ 4d/	.	8b/L	.	.	.	.	.	.	.	8b\L	.	.	.	.	.	.	.
.	.	.	.	.	8g/J	.	.	.	.	.	.	.	8g\J	.	.	.	.	.	.	.
=10	=10	=10	=10	=10	=10	=10	=10	=10	=10	=10	=10	=10	=10	=10	=10	=10	=10	=10	=10	=10
4d\	x 3:	.	4A/ 4d/	.	4f#/	.	.	.	.	.	.	.	4f#\	-si-	-si-	.	.	.	.	.
4c\	.	.	4A/ 4d/	.	8f#/L	.	.	.	.	.	.	.	8f#\L	-li-	-li-	.	.	.	.	.
.	.	.	.	.	8d/J	.	.	.	.	.	.	.	8d\J	.	.	.	.	.	.	.
4B\	6 x	.	4B/ 4d/	.	4g/	.	.	.	.	.	.	.	4g\	-o	-o	.	.	.	.	.
=11	=11	=11	=11	=11	=11	=11	=11	=11	=11	=11	=11	=11	=11	=11	=11	=11	=11	=11	=11	=11
2F#\	6 5	.	4A/ 4d/	.	8cc\L	.	.	.	.	.	.	.	8cc\L	Juſ-	juſ-	.	.	.	.	.
.	.	.	.	.	8dd\	.	.	.	.	.	.	.	8dd\	.	.	.	.	.	.	.
.	.	.	4A/ 4d/	.	8cc\	.	.	.	.	.	.	.	8cc\	.	.	.	.	.	.	.
.	.	.	.	.	8a\J	.	.	.	.	.	.	.	8a\J	.	.	.	.	.	.	.
4G\	.	.	4B/ 4d/	.	8b/L	.	.	.	.	.	.	.	8b\L	.	.	.	.	.	.	.
.	.	.	.	.	8g/J	.	.	.	.	.	.	.	8g\J	.	.	.	.	.	.	.
!	!	!	!	!	!	!	!	!	!	!	!	!	!LO:LB:g=original	!	!	!	!	!	!	!
=12	=12	=12	=12	=12	=12	=12	=12	=12	=12	=12	=12	=12	=12	=12	=12	=12	=12	=12	=12	=12
4d\	7: x	.	4A/ 4d/	.	4f#/	.	.	.	.	.	.	.	4f#\	-to-	.	.	.	.	.	.
4c\	.	.	4A/ 4d/	.	8f#/L	.	.	.	.	.	.	.	8f#\L	.	-to-	.	.	.	.	.
.	.	.	.	.	8d/J	.	.	.	.	.	.	.	8d\J	.	.	.	.	.	.	.
4B\	6 x	.	4B/ 4d/	.	4g/	.	.	.	.	.	.	.	4g\	-rum	-rum	.	.	.	.	.
=13	=13	=13	=13	=13	=13	=13	=13	=13	=13	=13	=13	=13	=13	=13	=13	=13	=13	=13	=13	=13
4A\	6: 3:	.	4c/	.	8g/L	.	0.r	.	.	0.r	.	.	8g\L	et	et	0.r	.	.	0.r	0.r
.	.	.	.	.	8f#/J	.	.	.	.	.	.	.	8f#\J	.	.	.	.	.	.	.
4F#\	.	.	4A/	.	8dd/L	.	.	.	.	.	.	.	8dd\L	Con-	con-	.	.	.	.	.
.	.	.	.	.	8cc/	.	.	.	.	.	.	.	8cc\J	.	.	.	.	.	.	.
4D\	.	.	4A/	.	8a/	.	.	.	.	.	.	.	8a\L	-gre-	-gre-	.	.	.	.	.
.	.	.	.	.	8f#/J	.	.	.	.	.	.	.	8f#\J	.	.	.	.	.	.	.
=14	=14	=14	=14	=14	=14	=14	=14	=14	=14	=14	=14	=14	=14	=14	=14	=14	=14	=14	=14	=14
4G\	.	.	4B/	.	4g/	.	.	.	.	.	.	.	4g\	ga-	ga-	.	.	.	.	.
4GG/	.	.	4d/	.	8b/L	.	.	.	.	.	.	.	8b\L	.	.	.	.	.	.	.
.	.	.	.	.	8g/	.	.	.	.	.	.	.	8g\J	.	.	.	.	.	.	.
4G\	.	.	4d/	.	8a/	.	.	.	.	.	.	.	8a\L	-ti-	-ti-	.	.	.	.	.
.	.	.	.	.	8b/J	.	.	.	.	.	.	.	8b\J	.	.	.	.	.	.	.
=15	=15	=15	=15	=15	=15	=15	=15	=15	=15	=15	=15	=15	=15	=15	=15	=15	=15	=15	=15	=15
4c\	6 x	.	4e/	.	8cc/L	.	.	.	.	.	.	.	8cc\L	-o-	-o-	.	.	.	.	.
.	.	.	.	.	8a/J	.	.	.	.	.	.	.	8a\J	.	.	.	.	.	.	.
4d\	x 4	.	4B/	.	4g/	.	.	.	.	.	.	.	4g\	.	.	.	.	.	.	.
4D\	x 3	.	4A/	.	4f#/	.	.	.	.	.	.	.	4f#\	.	.	.	.	.	.	.
!	!	!	!	!	!LO:LB:g=original	!	!	!	!	!	!	!	!	!	!	!	!	!	!	!
=16	=16	=16	=16	=16	=16	=16	=16	=16	=16	=16	=16	=16	=16	=16	=16	=16	=16	=16	=16	=16
4G\	.	.	8B/L	.	8g/L	.	.	.	.	.	.	.	4g\	-ne	-ne.	.	.	.	.	.
.	.	.	16d/L	.	16b/L	.	.	.	.	.	.	.	.	.	.	.	.	.	.	.
.	.	.	16c/JJ	.	16a/JJ	.	.	.	.	.	.	.	.	.	.	.	.	.	.	.
!	!	!	!	!LO:DY:a:t=for:mod= 	!	!LO:DY:a:t=for.:mod= 	!	!	!	!	!	!	!	!	!	!	!	!	!	!
4GG/	.	.	8B/L	f	8g/L	f	.	.	.	.	.	.	4r	.	.	.	.	.	.	.
!	!	!	!	!LO:MO:null:mod=f	!	!LO:MO:null:mod=f	!	!	!	!	!	!	!	!	!	!	!	!	!	!
.	.	.	8d/	.	8d/	.	.	.	.	.	.	.	.	.	.	.	.	.	.	.
4r	.	.	8e/	.	8e/	.	.	.	.	.	.	.	4r	.	.	.	.	.	.	.
.	.	.	8f#/J	.	8f#/J	.	.	.	.	.	.	.	.	.	.	.	.	.	.	.
=17	=17	=17	=17	=17	=17	=17	=17	=17	=17	=17	=17	=17	=17	=17	=17	=17	=17	=17	=17	=17
!!LO:TX:a:t= :mod=Tutti
!	!	!LO:MO:mod=!LO&colon;DY&colon;ed=brack	!	!	!	!	!	!	!	!	!	!	!	!	!	!	!	!	!	!
!	!	!null	!	!	!	!	!	!	!	!	!	!	!	!	!	!	!	!	!	!
!LO:TX:a:t=Tutti:mod=	!	!LO:MO:null:mod=f	!	!	!	!	!LO:SIC:o=(>4G\	!	!	!	!	!	!	!	!	!LO:SIC:o=(>4g\	!	!	!	!
4G\	.	.	4g/	.	4g/	.	4G	Ma-	Ma-	4G/	Ma-	Ma-	4g\	Ma-	Ma-	4g	ma-	Ma-	4G/	4g\
!	!	!	!	!	!	!	!LO:SIC:o=8B\L)	!	!	!	!	!	!	!	!	!LO:SIC:o=8b\L)	!	!	!	!
8B|>\L	.	.	8b/L	.	8b/L	.	8BL	.	.	8B/L	.	.	8b\L	.	.	8bL	.	.	4r	4r
8G|>\	.	.	8g/	.	8g/	.	8G\J	.	.	8G/J	.	.	8g\J	.	.	8g\J	.	.	.	.
8F#|>\	.	.	8f#/	.	8f#/	.	8F#\L	-gna	-gna	8F#/L	-gna	-gna	8f#\L	-gna	-gna	8f#/L	-gna	-gna	4r	4r
8D|>\J	.	.	8d/J	.	8d/J	.	8D\J	.	.	8D/J	.	.	8d\J	.	.	8d/J	.	.	.	.
!LO:LB:g=original	!	!	!	!	!	!	!	!	!	!	!	!	!LO:PB:g=original	!	!	!	!	!	!	!
=18	=18	=18	=18	=18	=18	=18	=18	=18	=18	=18	=18	=18	=18	=18	=18	=18	=18	=18	=18	=18
8G|>\L	.	.	8g/L	.	8g/L	.	8G\L	o-	o-	8G/L	o-	o-	8g\L	O-	o-	8g\L	O-	o-	4G/	4g\
8F#|>\	.	.	8f#/	.	8f#/	.	8F#\J	.	.	8F#/J	.	.	8f#\J	.	.	8f#\J	.	.	.	.
8G|>\	.	.	8g/	.	8g/	.	8G\L	-pe-	-pe-	8G\L	-pe-	-pe-	8g\L	-pe-	-pe-	8g\L	-pe-	-pe-	8G/L	8g\L
8B|>\J	.	.	8b/J	.	8b/J	.	8B\J	.	.	8B\J	.	.	8b\J	.	.	8b\J	.	.	8B/J	8b\J
4d\	.	.	4dd\	.	4dd\	.	4d\	-ra	-ra	4d\	-ra	-ra	4dd\	-ra	-ra	4dd\	-ra	-ra	4d/	4dd\
!	!	!	!LO:LB:g=original	!	!	!	!	!	!	!	!	!	!	!	!	!	!	!	!	!
=19	=19	=19	=19	=19	=19	=19	=19	=19	=19	=19	=19	=19	=19	=19	=19	=19	=19	=19	=19	=19
4G|>\	.	.	4g/	.	4g/	.	8G\	Do-	Do-	8G/	Do-	Do-	8g\	Do-	Do-	8g\	Do-	Do-	4G/	4g\
.	.	.	.	.	.	.	8G\	-mi-	-mi-	8G/	-mi-	-mi-	8g\	-mi-	-mi-	8g\	-mi-	-mi-	.	.
8B|>\L	.	.	8b/L	.	8b/L	.	8B\L	-ni	-ni	8B/L	-ni	-ni	8b\L	-ni	-ni	8b\L	-ni	-ni	4r	4r
8G|>\	.	.	8g/	.	8g/	.	8G\J	.	.	8G/J	.	.	8g\J	.	.	8g\J	.	.	.	.
8F#|>\	.	.	8f#/	.	8f#/	.	8F#\L	ex-	ex-	8F#/L	ex-	ex-	8f#\L	ex-	ex-	8f#/L	ex-	ex-	4r	4r
8D|>\J	.	.	8d/J	.	8d/J	.	8D\J	.	.	8D/J	.	.	8d\J	.	.	8d/J	.	.	.	.
=20	=20	=20	=20	=20	=20	=20	=20	=20	=20	=20	=20	=20	=20	=20	=20	=20	=20	=20	=20	=20
8G|>\L	.	.	8g/L	.	8g/L	.	8G\L	-qui-	-qui-	8G/L	-qui-	-qui-	8g\L	-qui-	-qui-	8g\L	-qui-	-qui-	4G/	4g\
8F#|>\	.	.	8f#/	.	8f#/	.	8F#\J	.	.	8F#/J	.	.	8f#\J	.	.	8f#\J	.	.	.	.
!	!	!	!	!	!	!	!LO:LB:g=original	!	!	!	!	!	!	!	!	!LO:LB:g=original	!	!	!	!
8G|>\	.	.	8g/	.	8g/	.	8G\L	-ſi-	-ſi-	8G/L	-si-	-si-	8g\L	-si-	-si-	8g\L	-si-	-si-	8G/L	8g\L
8B|>\J	.	.	8b/J	.	8b/J	.	8B\J	.	.	8B/J	.	.	8b\J	.	.	8b\J	.	.	8B/J	8b\J
4G|>\	.	.	4g/	.	4g/	.	4G\	-ta	-ta	4G/	-ta	-ta	4g\	-ta	-ta	4g\	-ta	-ta	4G/	4g\
!	!	!	!	!	!	!	!	!	!	!LO:LB:g=original	!	!	!	!	!	!	!	!	!	!LO:LB:g=original
=21	=21	=21	=21	=21	=21	=21	=21	=21	=21	=21	=21	=21	=21	=21	=21	=21	=21	=21	=21	=21
4c|>\	.	.	4cc\	.	4cc\	.	4c\	in	in	4c\	in	in	4cc\	in	in	4cc\	in	in	0.r	0.r
4c|>\	.	.	4cc\	.	4cc\	.	4c\	o-	o-	4c\	o-	o-	4cc\	o-	o-	4cc\	o-	o-	.	.
8A|>\L	.	.	8a/L	.	8a/L	.	8A\L	-mnes	-mnes	8A/L	-mnes	-mnes	8a\L	-mnes	-mnes	8a\L	-mnes	-mnes	.	.
8F#|>\J	.	.	8f#/J	.	8f#/J	.	8F#\J	.	.	8F#/J	.	.	8f#\J	.	.	8f#\J	.	.	.	.
=22	=22	=22	=22	=22	=22	=22	=22	=22	=22	=22	=22	=22	=22	=22	=22	=22	=22	=22	=22	=22
4G|>\	.	.	4g/	.	4g/	.	4G\	vo-	vo-	4G/	vo-	vo-	4g\	vo-	vo-	4g\	vo-	vo-	.	.
8B|>\L	.	.	8b\L	.	8b/L	.	8B\L	.	.	8B\L	.	.	8b\L	.	.	8b\L	.	.	.	.
8G|>\	.	.	8g\	.	8g/J	.	8G\J	.	.	8G\J	.	.	8g\J	.	.	8g\J	.	.	.	.
8B|>\	.	.	8b\	.	8b\L	.	8B\L	-lun-	-lun-	8B\L	-lun-	-lun-	8b\L	-lun-	-lun-	8b\L	-lun-	-lun-	.	.
8d|>\J	.	.	8dd\J	.	8dd\J	.	8d\J	.	.	8d\J	.	.	8dd\J	.	.	8dd\J	.	.	.	.
!	!	!	!	!	!	!	!	!	!	!	!	!	!LO:LB:g=original	!	!	!	!	!	!	!
=23	=23	=23	=23	=23	=23	=23	=23	=23	=23	=23	=23	=23	=23	=23	=23	=23	=23	=23	=23	=23
!	!	!	!	!	!	!	!LO:MO:mod=*null:null	!	!	!LO:MO:mod=*null:null	!	!	!	!	!	!LO:MO:mod=*null:null	!	!	!	!
*	*	*	*	*	*	*	*2\right	*	*	*2\right	*	*	*	*	*	*2\right	*	*	*	*
4c|>\	.	.	4cc\	.	4cc\	.	2c\	-ta-	-ta-	2c\	-ta-	-ta-	2cc\	-ta-	-ta-	2cc\	-ta-	-ta-	.	.
4c|>\	.	.	4cc\	.	4cc\	.	.	.	.	.	.	.	.	.	.	.	.	.	.	.
8A|>\L	.	.	8a/L	.	8a/L	.	8A\L	-tis	-tes	8A/L	-tes	-tes	8a\L	-tes	-tes	8a\L	-tes	-tes	.	.
8F#|>\J	.	.	8f#/J	.	8f#/J	.	8F#\J	.	.	8F#/J	.	.	8f#\J	.	.	8f#\J	.	.	.	.
!	!	!	!	!	!LO:LB:g=original	!	!	!	!	!	!	!	!	!	!	!	!	!	!	!
=24	=24	=24	=24	=24	=24	=24	=24	=24	=24	=24	=24	=24	=24	=24	=24	=24	=24	=24	=24	=24
!LO:SIC:o=(<2.G\	!	!	!	!	!	!	!	!	!	!	!	!	!	!	!	!	!	!	!	!
2.G	.	.	8g/L	.	8g/L	.	4G\	e-	e-	4G/	e-	e-	4g\	e-	e-	4g\	e-	e-	.	.
.	.	.	8b/J	.	8b/J	.	.	.	.	.	.	.	.	.	.	.	.	.	.	.
.	.	.	4g/	.	4g/	.	4G\	-ius	-jus	4G/	-ius	-jus	4g\	-ius	-jus	4b\	-ius	-jus	.	.
.	.	.	4d/	.	8b\L	.	4G\	Con-	con-	4d\	Con-	con-	4g\	Con-	con-	4b\	Con-	con-	.	.
.	.	.	.	.	8cc\J	.	.	.	.	.	.	.	.	.	.	.	.	.	.	.
!	!	!	!	!	!	!	!	!	!	!	!	!	!	!	!	!	!	!	!LO:LB:g=original	!
=25	=25	=25	=25	=25	=25	=25	=25	=25	=25	=25	=25	=25	=25	=25	=25	=25	=25	=25	=25	=25
!	!	!	!	!	!	!	!	!	!	!	!	!	!	!	!	!	!	!	!	!LO:MO:mod=*null:null
*	*	*	*	*	*	*	*	*	*	*	*	*	*	*	*	*	*	*	*	*2\right
!LO:SIC:o=[<2.GG/)	!	!	!LO:SIC:o=2.B/ [<2.d/	!	!	!	!	!	!	!	!	!	!	!	!	!	!	!	!	!
[2.GG	.	.	[2.B [2.d	.	8ddL	.	4.G\	-feſ-	-feſ-	4.d\	-feſ-	-feſ-	4.g\	-feſ-	-feſ-	4.b\	-feſ-	-feſ-	2.B/	2.g\
.	.	.	.	.	8b	.	.	.	.	.	.	.	.	.	.	.	.	.	.	.
.	.	.	.	.	8ee	.	.	.	.	.	.	.	.	.	.	.	.	.	.	.
.	.	.	.	.	8dd	.	8G\	-si-	-si-	8d\	-si-	-si-	8g\	-si-	-si-	8b\	-si-	-si-	.	.
.	.	.	.	.	8b	.	4G\	-o	-o	4d\	-o	-o	4g\	-o	-o	4b\	-o	-o	.	.
.	.	.	.	.	8ccJ	.	.	.	.	.	.	.	.	.	.	.	.	.	.	.
!	!	!	!	!	!	!	!LO:LB:g=original	!	!	!	!	!	!	!	!	!	!	!	!	!
=26	=26	=26	=26	=26	=26	=26	=26	=26	=26	=26	=26	=26	=26	=26	=26	=26	=26	=26	=26	=26
!	!	!	!LO:SIC:o=2.B/ 2.d]/	!	!	!	!	!	!	!	!	!	!	!	!	!	!	!	!	!
2.GG/_<	.	.	2.B_ 2.d_	.	8ddL	.	2G\	et	et	2d\	et	et	2g\	et	et	2b\	et	et	2.B/	2.g\
.	.	.	.	.	16eeL	.	.	.	.	.	.	.	.	.	.	.	.	.	.	.
.	.	.	.	.	16ddJJ	.	.	.	.	.	.	.	.	.	.	.	.	.	.	.
.	.	.	.	.	4b	.	.	.	.	.	.	.	.	.	.	.	.	.	.	.
.	.	.	.	.	8ccL	.	4G\	ma-	ma-	4d\	ma-	ma-	4g\	ma-	ma-	4b\	ma-	ma-	.	.
.	.	.	.	.	8ddJ	.	.	.	.	.	.	.	.	.	.	.	.	.	.	.
!LO:LB:g=original	!	!	!	!	!	!	!	!	!	!	!	!	!	!	!	!LO:LB:g=original	!	!	!	!
=27	=27	=27	=27	=27	=27	=27	=27	=27	=27	=27	=27	=27	=27	=27	=27	=27	=27	=27	=27	=27
!	!	!	!LO:SIC:o=2.B/ 2.d/	!	!	!	!	!	!	!	!	!	!	!	!	!	!	!	!	!
2.GG/_<	.	.	2.B_ 2.d_	.	8dd\L	.	2G\	-gni-	-gni-	2d\	-gni-	-gni-	2g\	-gni-	-gni-	2b\	-gni-	-gni-	2.B/	2.g\
.	.	.	.	.	8b\	.	.	.	.	.	.	.	.	.	.	.	.	.	.	.
.	.	.	.	.	8ee\	.	.	.	.	.	.	.	.	.	.	.	.	.	.	.
.	.	.	.	.	8dd\	.	.	.	.	.	.	.	.	.	.	.	.	.	.	.
.	.	.	.	.	8b\	.	4G\	-fi-	-fi-	4d\	-fi-	-fi-	4g\	-fi-	-fi-	4b\	-fi-	-fi-	.	.
.	.	.	.	.	8cc\J	.	.	.	.	.	.	.	.	.	.	.	.	.	.	.
=28	=28	=28	=28	=28	=28	=28	=28	=28	=28	=28	=28	=28	=28	=28	=28	=28	=28	=28	=28	=28
!	!	!	!LO:SIC:o=2.B/ 2.d/	!	!	!	!	!	!	!	!	!	!	!	!	!	!	!	!	!
2.GG/_<	.	.	2.B_ 2.d_	.	8dd\L	.	4.G\	-cen-	-cen-	4.d\	-cen-	-cen-	4.g\	-cen-	-cen-	4.b\	-cen-	-cen-	2.B/	2.g\
.	.	.	.	.	16ee\L	.	.	.	.	.	.	.	.	.	.	.	.	.	.	.
.	.	.	.	.	16dd\JJ	.	.	.	.	.	.	.	.	.	.	.	.	.	.	.
.	.	.	.	.	4b\	.	.	.	.	.	.	.	.	.	.	.	.	.	.	.
.	.	.	.	.	.	.	8G\	-ti-	-ti-	8d\	-ti-	-ti-	8g\	-ti-	-ti-	8b\	-ti-	-ti-	.	.
.	.	.	.	.	8b\L	.	4G\	-a	-a	4d\	-a	-a	4g\	-a	-a	4b\	-a	-a	.	.
.	.	.	.	.	8g\J	.	.	.	.	.	.	.	.	.	.	.	.	.	.	.
!	!	!	!LO:LB:g=original	!	!	!	!	!	!	!LO:LB:g=original	!	!	!	!	!	!	!	!	!	!
=29	=29	=29	=29	=29	=29	=29	=29	=29	=29	=29	=29	=29	=29	=29	=29	=29	=29	=29	=29	=29
!	!	!	!LO:SIC:o=2.B/ 2.d/	!	!	!	!	!	!	!	!	!	!	!	!	!	!	!	!	!
2.GG/_<	.	.	2.B_ 2.d_	.	8a/L	.	2G\	o-	o-	2d\	o-	o-	2g\	o-	o-	2b\	o-	o-	2.B/	2.g\
.	.	.	.	.	8b/J	.	.	.	.	.	.	.	.	.	.	.	.	.	.	.
.	.	.	.	.	8g/L	.	.	.	.	.	.	.	.	.	.	.	.	.	.	.
.	.	.	.	.	8d/	.	.	.	.	.	.	.	.	.	.	.	.	.	.	.
.	.	.	.	.	8g/	.	4G\	-pus	-pus	4d\	-pus	-pus	4g\	-pus	-pus	4b\	-pus	-pus	.	.
.	.	.	.	.	8b/J	.	.	.	.	.	.	.	.	.	.	.	.	.	.	.
=30	=30	=30	=30	=30	=30	=30	=30	=30	=30	=30	=30	=30	=30	=30	=30	=30	=30	=30	=30	=30
!	!	!	!LO:SIC:o=2.B/ 2.d/	!	!	!	!	!	!	!	!	!	!	!	!	!	!	!	!	!
2.GG/_<	.	.	2.B] 2.d]	.	8dd\L	.	2G\	e-	e-	2d\	e-	e-	2g\	e-	e-	2b\	e-	e-	2.B/	2.g\
.	.	.	.	.	8b\J	.	.	.	.	.	.	.	.	.	.	.	.	.	.	.
.	.	.	.	.	4g/	.	.	.	.	.	.	.	.	.	.	.	.	.	.	.
.	.	.	.	.	8a/L	.	4G\	-ius	-jus	4d\	-ius	-jus	4g\	-ius	-jus	4b\	-ius	-jus	.	.
.	.	.	.	.	8b/J	.	.	.	.	.	.	.	.	.	.	.	.	.	.	.
!	!	!	!	!	!LO:LB:g=original	!	!	!	!	!	!	!	!LO:LB:g=original	!	!	!	!	!	!	!
=31	=31	=31	=31	=31	=31	=31	=31	=31	=31	=31	=31	=31	=31	=31	=31	=31	=31	=31	=31	=31
4GG/]	.	.	8g/L	.	8gg\L	.	2G\	et	et	2d\	et	et	2g\	et	et	2b\	et	et	2.G/	2.g\
.	.	.	16a/L	.	16aa\L	.	.	.	.	.	.	.	.	.	.	.	.	.	.	.
.	.	.	16b/JJ	.	16bb\JJ	.	.	.	.	.	.	.	.	.	.	.	.	.	.	.
4G\	.	.	8g/L	.	8gg\L	.	.	.	.	.	.	.	.	.	.	.	.	.	.	.
.	.	.	8f#/	.	8ff#\	.	.	.	.	.	.	.	.	.	.	.	.	.	.	.
4G\	.	.	8e/	.	8ee\	.	4G\	iuſ-	jus-	4G/	iuſ-	jus-	4b\	Juſ-	jus-	4dd\	Jus-	jus-	.	.
.	.	.	8d/J	.	8dd\J	.	.	.	.	.	.	.	.	.	.	.	.	.	.	.
=32	=32	=32	=32	=32	=32	=32	=32	=32	=32	=32	=32	=32	=32	=32	=32	=32	=32	=32	=32	=32
4G\	6 4	.	4e/	.	4ee\	.	2G\	-ti-	-ti-	2G/	-ti-	-ti-	2cc\	-ti-	-ti-	2ee\	-ti-	-ti-	2.G/	2.g\
4G\	.	.	8e/L	.	8ee\L	.	.	.	.	.	.	.	.	.	.	.	.	.	.	.
.	.	.	8g/	.	8gg\	.	.	.	.	.	.	.	.	.	.	.	.	.	.	.
4G\	7 2	.	8f#/	.	8ff#\	.	4G\	-ti-	-ti-	4G/	-ti-	-ti-	4a\	-ti-	-ti-	4ff#\	-ti-	-ti-	.	.
.	.	.	8a/J	.	8aa\J	.	.	.	.	.	.	.	.	.	.	.	.	.	.	.
=33	=33	=33	=33	=33	=33	=33	=33	=33	=33	=33	=33	=33	=33	=33	=33	=33	=33	=33	=33	=33
4G\	x 3:	.	8g/L	.	8gg\L	.	4G\	-a	-a	4G/	-a	-a	4b\	-a	-a	4gg\	-a	-a	2.G/	2.g\
.	.	.	16a/L	.	16aa\L	.	.	.	.	.	.	.	.	.	.	.	.	.	.	.
.	.	.	16b/JJ	.	16bb\JJ	.	.	.	.	.	.	.	.	.	.	.	.	.	.	.
4G\	.	.	8g/L	.	8gg\L	.	4G\	e-	e-	4G/	e-	e-	4b\	e-	e-	4dd\	e-	e-	.	.
.	.	.	8f#/	.	8ff#\	.	.	.	.	.	.	.	.	.	.	.	.	.	.	.
4G\	.	.	8e/	.	8ee\	.	4G\	-ius	-jus	4G/	-ius	-jus	4b\	-ius	-jus	4dd\	-ius	-jus	.	.
.	.	.	8d/J	.	8dd\J	.	.	.	.	.	.	.	.	.	.	.	.	.	.	.
=34	=34	=34	=34	=34	=34	=34	=34	=34	=34	=34	=34	=34	=34	=34	=34	=34	=34	=34	=34	=34
4G\	6 4	.	4e/	.	4ee\	.	2.G\	ma-	ma-	2.G/	ma-	ma-	2cc\	ma-	ma-	2ee\	ma-	ma-	2.G/	2.g\
4G\	.	.	8e/L	.	8ee\L	.	.	.	.	.	.	.	.	.	.	.	.	.	.	.
.	.	.	8g/	.	8gg\	.	.	.	.	.	.	.	.	.	.	.	.	.	.	.
4G\	7 2	.	8f#/	.	8ff#\	.	.	.	.	.	.	.	4a\	.	.	4ff#\	.	.	.	.
.	.	.	8a/J	.	8aa\J	.	.	.	.	.	.	.	.	.	.	.	.	.	.	.
!	!	!	!	!	!	!	!LO:LB:g=original	!	!	!	!	!	!	!	!	!LO:LB:g=original	!	!	!	!
=35	=35	=35	=35	=35	=35	=35	=35	=35	=35	=35	=35	=35	=35	=35	=35	=35	=35	=35	=35	=35
4G\	x 3:	.	4g/	.	8gg\L	.	2G\	-net	-net	2G/	-net	-net	2b\	-net	-net	2gg\	-net	-net	2.G/	2.g\
.	.	.	.	.	8dd\	.	.	.	.	.	.	.	.	.	.	.	.	.	.	.
4G\	.	.	4B/ 4d/	.	8dd\	.	.	.	.	.	.	.	.	.	.	.	.	.	.	.
.	.	.	.	.	8b\	.	.	.	.	.	.	.	.	.	.	.	.	.	.	.
4G\	.	.	4B/ 4d/	.	8ee\	.	4G\	in	in	4G/	in	in	4b\	in	in	4dd\	in	in	.	.
.	.	.	.	.	8dd\J	.	.	.	.	.	.	.	.	.	.	.	.	.	.	.
=36	=36	=36	=36	=36	=36	=36	=36	=36	=36	=36	=36	=36	=36	=36	=36	=36	=36	=36	=36	=36
4F#\	6 5	.	4A/ 4d/	.	8dd\L	.	4F#\	Sae-	sae-	4d\	Sae-	sae-	4a\	Sae-	sae-	4dd\	Sae-	sae-	2d/	2a\
.	.	.	.	.	8cc\	.	.	.	.	.	.	.	.	.	.	.	.	.	.	.
4F#\	.	.	4A/ 4d/	.	8cc	.	4F#\	-cu-	-cu-	4d\	-cu-	-cu-	4a\	-cu-	-cu-	4cc\	-cu-	-cu-	.	.
.	.	.	.	.	8a\	.	.	.	.	.	.	.	.	.	.	.	.	.	.	.
!LO:SIC:o=4F#\	!	!	!	!	!	!	!	!	!	!	!	!	!	!	!	!	!	!	!	!
4G	.	.	4B/ 4d/	.	8b\	.	4G\	-lum	-lum	4d\	-lum	-lum	4g\	-lum	-lum	4b\	-lum	-lum	4g\	4b\
.	.	.	.	.	8dd\J	.	.	.	.	.	.	.	.	.	.	.	.	.	.	.
!	!	!	!	!	!	!	!	!	!	!	!	!	!	!	!	!	!	!	!	!LO:LB:g=original
=37	=37	=37	=37	=37	=37	=37	=37	=37	=37	=37	=37	=37	=37	=37	=37	=37	=37	=37	=37	=37
!	!	!	!	!	!	!	!	!	!	!LO:SIC:o=(>4e\	!	!	!	!	!	!	!	!	!	!
4c\	6 x	.	4a/	.	8ee\L	.	4c\	Sae-	sae-	4e	Sae-	sae-	4a\	Sae-	sae-	4cc\	Sae-	sae-	4a\	4cc\
.	.	.	.	.	16dd\L	.	.	.	.	.	.	.	.	.	.	.	.	.	.	.
.	.	.	.	.	16cc\JJ	.	.	.	.	.	.	.	.	.	.	.	.	.	.	.
!	!	!	!	!	!	!	!	!	!	!LO:SIC:o=4d\)	!	!	!	!	!	!	!	!	!	!
4d\	x 4	.	4g/	.	4b\	.	4d\	.	.	4d	.	.	4g\	.	.	4b\	.	.	4g\	4b\
!	!	!	!LO:SIC:o=4e/	!	!	!	!	!	!	!	!	!	!	!	!	!	!	!	!	!
4D\	x 3	.	4f#	.	4a\	.	4D\	-cu-	-cu-	4d\	-cu-	-cu-	4f#\	-cu-	-cu-	4a\	-cu-	-cu-	4d\	4a\
!LO:LB:g=original	!	!	!	!	!	!	!	!	!	!	!	!	!	!	!	!	!	!	!LO:LB:g=original	!
=38	=38	=38	=38	=38	=38	=38	=38	=38	=38	=38	=38	=38	=38	=38	=38	=38	=38	=38	=38	=38
!	!	!	!LO:SIC:o=2.B/ 2.d/	!	!	!	!	!	!	!	!	!	!	!	!	!	!	!	!	!
[<2.G\	.	.	[2.B [2.d	.	8b\L	.	4G\	-li	-li.	4d\	-li	-li.	4g\	-li	-li.	4b\	-li	-li.	2.B/	2.g\
.	.	.	.	.	8dd\J	.	.	.	.	.	.	.	.	.	.	.	.	.	.	.
!	!	!	!	!	!LO:LB:g=original	!	!	!	!	!	!	!	!	!	!	!	!	!	!	!
.	.	.	.	.	8dd\L	.	4r	.	.	4r	.	.	4r	.	.	4r	.	.	.	.
.	.	.	.	.	8bb\	.	.	.	.	.	.	.	.	.	.	.	.	.	.	.
.	.	.	.	.	8ee\	.	4r	.	.	4r	.	.	4r	.	.	4r	.	.	.	.
.	.	.	.	.	8dd\J	.	.	.	.	.	.	.	.	.	.	.	.	.	.	.
!	!	!	!LO:LB:g=original	!	!	!	!	!	!	!LO:LB:g=original	!	!	!LO:LB:g=original	!	!	!	!	!	!	!
=39	=39	=39	=39	=39	=39	=39	=39	=39	=39	=39	=39	=39	=39	=39	=39	=39	=39	=39	=39	=39
!	!	!	!LO:SIC:o=2.B/ 2.d/	!	!	!	!	!	!	!	!	!	!	!	!	!	!	!	!	!
2.G\_<	.	.	2.B_ 2.d_	.	8b\L	.	0.r	.	.	0.r	.	.	0.r	.	.	1.r	.	.	2.B/	2.g\
.	.	.	.	.	16cc\L	.	.	.	.	.	.	.	.	.	.	.	.	.	.	.
.	.	.	.	.	16b\JJ	.	.	.	.	.	.	.	.	.	.	.	.	.	.	.
.	.	.	.	.	4g/	.	.	.	.	.	.	.	.	.	.	.	.	.	.	.
.	.	.	.	.	8b\L	.	.	.	.	.	.	.	.	.	.	.	.	.	.	.
.	.	.	.	.	8dd\J	.	.	.	.	.	.	.	.	.	.	.	.	.	.	.
=40	=40	=40	=40	=40	=40	=40	=40	=40	=40	=40	=40	=40	=40	=40	=40	=40	=40	=40	=40	=40
!	!	!	!LO:SIC:o=2.B/ 2.d/	!	!	!	!	!	!	!	!	!	!	!	!	!	!	!	!	!
2.G\_<	.	.	2.B_ 2.d_	.	8g\L	.	.	.	.	.	.	.	.	.	.	.	.	.	2.B/	2.g\
.	.	.	.	.	8b\	.	.	.	.	.	.	.	.	.	.	.	.	.	.	.
.	.	.	.	.	8dd\	.	.	.	.	.	.	.	.	.	.	.	.	.	.	.
.	.	.	.	.	8b\	.	.	.	.	.	.	.	.	.	.	.	.	.	.	.
.	.	.	.	.	8ee\	.	.	.	.	.	.	.	.	.	.	.	.	.	.	.
.	.	.	.	.	8dd\J	.	.	.	.	.	.	.	.	.	.	.	.	.	.	.
=41	=41	=41	=41	=41	=41	=41	=41	=41	=41	=41	=41	=41	=41	=41	=41	=41	=41	=41	=41	=41
!LO:SIC:o=(<2.G\]	!	!	!LO:SIC:o=2.B/ 2.d/	!	!	!	!	!	!	!	!	!	!	!	!	!	!	!	!	!
2.G]	.	.	2.B] 2.d]	.	8b\L	.	.	.	.	.	.	.	.	.	.	2.r	.	.	2.B/	2.g\
.	.	.	.	.	16cc\L	.	.	.	.	.	.	.	.	.	.	.	.	.	.	.
.	.	.	.	.	16b\JJ	.	.	.	.	.	.	.	.	.	.	.	.	.	.	.
.	.	.	.	.	4g/	.	.	.	.	.	.	.	.	.	.	.	.	.	.	.
.	.	.	.	.	8g/L	.	.	.	.	.	.	.	.	.	.	.	.	.	.	.
.	.	.	.	.	8d/J	.	.	.	.	.	.	.	.	.	.	.	.	.	.	.
=42	=42	=42	=42	=42	=42	=42	=42	=42	=42	=42	=42	=42	=42	=42	=42	=42	=42	=42	=42	=42
!LO:SIC:o=[<2.GG/)	!	!	!	!	!	!	!	!	!	!	!	!	!	!	!	!LO:MO:mod=!LO&colon;TX&colon;a&colon;i&colon;t=Solo	!	!	!	!
!LO:TX:a:t=Solo:mod=	!	!LO:DY:a:t=p.:rj:mod=%s	!LO:SIC:o=2.B/ 2.d/	!LO:DY:a:t=p&colon;:mod=%s	!	!LO:DY:a:rj:t=p.:mod=%s	!	!	!	!	!	!	!	!	!	!LO:TX:a:t=Solo	!	!	!	!
[2.GG	.	p	[2.B [2.d	p	8g/L	p	.	.	.	.	.	.	.	.	.	8g\L	Me-	Me-	0.r	0.r
.	.	.	.	.	8a/J	.	.	.	.	.	.	.	.	.	.	8a\J	.	.	.	.
.	.	.	.	.	4b\	.	.	.	.	.	.	.	.	.	.	4b\	-mo-	-mo-	.	.
.	.	.	.	.	8b\L	.	.	.	.	.	.	.	.	.	.	8b\	-ri-	-ri-	.	.
.	.	.	.	.	8cc\J	.	.	.	.	.	.	.	.	.	.	8b\	-am	-am	.	.
=43	=43	=43	=43	=43	=43	=43	=43	=43	=43	=43	=43	=43	=43	=43	=43	=43	=43	=43	=43	=43
!	!	!	!LO:SIC:o=2.B/ 2.d/	!	!	!	!	!	!	!	!	!	!	!	!	!	!	!	!	!
2.GG/_<	.	.	2.B_ 2.d_	.	8dd\L	.	0.r	.	.	0.r	.	.	0.r	.	.	8dd\	fe-	fe-	.	.
.	.	.	.	.	8gg\J	.	.	.	.	.	.	.	.	.	.	8gg\	-cit	-cit	.	.
!	!	!	!	!	!	!	!	!	!	!	!	!	!	!	!	!LO:LB:g=original	!	!	!	!
.	.	.	.	.	8b\L	.	.	.	.	.	.	.	.	.	.	8b\L	mi-	mi-	.	.
.	.	.	.	.	8a\	.	.	.	.	.	.	.	.	.	.	8a\J	.	.	.	.
.	.	.	.	.	8b\	.	.	.	.	.	.	.	.	.	.	8b\L	-ra-	-ra-	.	.
.	.	.	.	.	8cc\J	.	.	.	.	.	.	.	.	.	.	8cc\J	.	.	.	.
=44	=44	=44	=44	=44	=44	=44	=44	=44	=44	=44	=44	=44	=44	=44	=44	=44	=44	=44	=44	=44
!LO:SIC:o=2.GG/]	!	!	!LO:SIC:o=2.B/ 2.d/	!	!	!	!	!	!	!	!	!	!	!	!	!	!	!	!	!
2.GG_	.	.	2.B_ 2.d_	.	8dd\L	.	.	.	.	.	.	.	.	.	.	8dd\	-bi-	-bi-	.	.
.	.	.	.	.	16ee\L	.	.	.	.	.	.	.	.	.	.	16ee\LL	-li-	-li-	.	.
.	.	.	.	.	16dd\JJ	.	.	.	.	.	.	.	.	.	.	16dd\JJ	.	.	.	.
.	.	.	.	.	4b/	.	.	.	.	.	.	.	.	.	.	4b\	-um	-um	.	.
!	!	!	!	!	!	!	!	!	!	!	!	!	!	!	!	!LO:SIC:o=8b\	!	!	!	!
.	.	.	.	.	8b/L	.	.	.	.	.	.	.	.	.	.	8bL	ſu-	ſu-	.	.
!	!	!	!	!	!	!	!	!	!	!	!	!	!	!	!	!LO:SIC:o=8g\	!	!	!	!
.	.	.	.	.	8g/J	.	.	.	.	.	.	.	.	.	.	8gJ	.	.	.	.
=45	=45	=45	=45	=45	=45	=45	=45	=45	=45	=45	=45	=45	=45	=45	=45	=45	=45	=45	=45	=45
!LO:SIC:o=2.GG/	!	!	!LO:SIC:o=2.B/ 2.d/	!	!	!	!	!	!	!	!	!	!	!	!	!	!	!	!	!
2.GG]	.	.	2.B] 2.d]	.	8a/L	.	.	.	.	.	.	.	.	.	.	8a\L	-o-	-o-	.	.
.	.	.	.	.	8b/J	.	.	.	.	.	.	.	.	.	.	8b\J	.	.	.	.
.	.	.	.	.	4g/	.	.	.	.	.	.	.	.	.	.	4g\	-rum	-rum	.	.
!	!	!	!	!	!LO:LB:g=original	!	!	!	!	!	!	!	!	!	!	!	!	!	!	!
.	.	.	.	.	8b\L	.	.	.	.	.	.	.	.	.	.	8b\L	mi-	mi-	.	.
.	.	.	.	.	8dd\J	.	.	.	.	.	.	.	.	.	.	8dd\J	.	.	.	.
=46	=46	=46	=46	=46	=46	=46	=46	=46	=46	=46	=46	=46	=46	=46	=46	=46	=46	=46	=46	=46
4GG/	.	.	4d/	.	8ccL\	.	.	.	.	.	.	.	.	.	.	8cc\L	-ſe-	-ſe-	0.r	0.r
.	.	.	.	.	8b\	.	.	.	.	.	.	.	.	.	.	8b\J	.	.	.	.
4G\	.	.	4g/	.	8b\	.	.	.	.	.	.	.	.	.	.	8b\L	-ri-	-ri-	.	.
.	.	.	.	.	8dd\	.	.	.	.	.	.	.	.	.	.	8dd\J	.	.	.	.
4G\	#4r 2	.	4a/	.	8cc#\	.	.	.	.	.	.	.	.	.	.	8cc#X\L	-cors	-cors	.	.
.	.	.	.	.	8eeJ\	.	.	.	.	.	.	.	.	.	.	8ee\J	.	.	.	.
=47	=47	=47	=47	=47	=47	=47	=47	=47	=47	=47	=47	=47	=47	=47	=47	=47	=47	=47	=47	=47
4F#\	6: x	.	4a/	.	4dd\	.	0.r	.	.	0.r	.	.	0.r	.	.	4dd\	et	et	.	.
!	!	!	!	!	!	!	!	!	!	!	!	!	!	!	!	!LO:LB:g=original	!	!	!	!
4F#\	.	.	4a/	.	8ddL\	.	.	.	.	.	.	.	.	.	.	8dd\L	mi-	mi-	.	.
.	.	.	.	.	8ff#\	.	.	.	.	.	.	.	.	.	.	8ff#\J	.	.	.	.
4F#\	.	.	4d/	.	8dd\	.	.	.	.	.	.	.	.	.	.	8dd\L	-se-	-se-	.	.
.	.	.	.	.	8aJ\	.	.	.	.	.	.	.	.	.	.	8a\J	.	.	.	.
=48	=48	=48	=48	=48	=48	=48	=48	=48	=48	=48	=48	=48	=48	=48	=48	=48	=48	=48	=48	=48
4G\	7: x	.	4d/	.	4b\	.	.	.	.	.	.	.	.	.	.	4b\	-ra-	.	.	.
!	!	!	!LO:SIC:o=4a/	!	!	!	!	!	!	!	!	!	!	!	!	!	!	!	!	!
4G\	.	.	4g	.	8bL\	.	.	.	.	.	.	.	.	.	.	8b\L	.	-ra-	.	.
.	.	.	.	.	8dd\	.	.	.	.	.	.	.	.	.	.	8dd\J	.	.	.	.
4G\	#4r 2	.	4a/	.	8cc#\	.	.	.	.	.	.	.	.	.	.	8cc#X\L	-tor	-tor	.	.
.	.	.	.	.	8eeJ\	.	.	.	.	.	.	.	.	.	.	8ee\J	.	.	.	.
=49	=49	=49	=49	=49	=49	=49	=49	=49	=49	=49	=49	=49	=49	=49	=49	=49	=49	=49	=49	=49
4F#\	6 x	.	4a/	.	8ddL\	.	.	.	.	.	.	.	.	.	.	8dd\L	Do-	Do-	.	.
.	.	.	.	.	8ff#\	.	.	.	.	.	.	.	.	.	.	8ff#\J	.	.	.	.
4E\	7 x	.	4g/	.	8dd\	.	.	.	.	.	.	.	.	.	.	8dd\L	-mi-	-mi-	.	.
.	.	.	.	.	8cc#J\	.	.	.	.	.	.	.	.	.	.	8cc#X\J	.	.	.	.
4D\	6 x	.	4f#/	.	4dd\	.	.	.	.	.	.	.	.	.	.	4dd\	-nus	-nus	.	.
!LO:LB:g=original	!	!	!	!	!	!	!	!	!	!	!	!	!	!	!	!	!	!	!	!
=50	=50	=50	=50	=50	=50	=50	=50	=50	=50	=50	=50	=50	=50	=50	=50	=50	=50	=50	=50	=50
4C#X\	6 5	.	4a/	.	8eeL\	.	.	.	.	.	.	.	.	.	.	8ee\L	es-	es-	0.r	0.r
.	.	.	.	.	8gg\	.	.	.	.	.	.	.	.	.	.	8gg\	.	.	.	.
4D\	.	.	4a/	.	8gg\	.	.	.	.	.	.	.	.	.	.	8gg\	.	.	.	.
.	.	.	.	.	8ff#\	.	.	.	.	.	.	.	.	.	.	8ff#\J	.	.	.	.
4F#\	6 x	.	4a/	.	8ee\	.	.	.	.	.	.	.	.	.	.	8ee\L	-cam	-cam	.	.
.	.	.	.	.	8dd\J	.	.	.	.	.	.	.	.	.	.	8dd\J	.	.	.	.
=51	=51	=51	=51	=51	=51	=51	=51	=51	=51	=51	=51	=51	=51	=51	=51	=51	=51	=51	=51	=51
4A\	# x	.	4a/	.	4cc#\	.	1.r	.	.	0.r	.	.	0.r	.	.	4cc#X\	de-	de-	.	.
4G\	.	.	4a/	.	8cc#\L	.	.	.	.	.	.	.	.	.	.	8cc#\L	-dit	-dit	.	.
.	.	.	.	.	8a\	.	.	.	.	.	.	.	.	.	.	8a\J	.	.	.	.
4F#\	6 x	.	4a/	.	8dd\	.	.	.	.	.	.	.	.	.	.	8dd\L	ti-	ti-	.	.
.	.	.	.	.	8ff#\J	.	.	.	.	.	.	.	.	.	.	8ff#\J	.	.	.	.
!	!	!	!	!	!	!	!	!	!	!	!	!	!	!	!	!LO:LB:g=original	!	!	!	!
=52	=52	=52	=52	=52	=52	=52	=52	=52	=52	=52	=52	=52	=52	=52	=52	=52	=52	=52	=52	=52
4G\	6 x	.	8b/L	.	8gg\L	.	.	.	.	.	.	.	.	.	.	4ee\	-men-	-men-	.	.
.	.	.	8g/J	.	8ee\J	.	.	.	.	.	.	.	.	.	.	.	.	.	.	.
4A\	x 4	.	4f#/	.	4dd\	.	.	.	.	.	.	.	.	.	.	4dd\	-ti-	-ti-	.	.
4AA/	# x	.	4e/	.	4cc#\	.	.	.	.	.	.	.	.	.	.	4cc#X\	-bus	-bus	.	.
!	!	!	!LO:LB:g=original	!	!	!	!	!	!	!	!	!	!	!	!	!	!	!	!	!
=53	=53	=53	=53	=53	=53	=53	=53	=53	=53	=53	=53	=53	=53	=53	=53	=53	=53	=53	=53	=53
4D\	.	.	4f#/	.	4dd\	.	4r	.	.	.	.	.	.	.	.	4dd\	se	se.	.	.
!	!	!	!	!	!LO:LB:g=original	!	!LO:TX:a:i:t= :mod=Solo	!	!	!	!	!	!	!	!	!	!	!	!	!
4D\	.	.	4a/	.	8dd\L	.	8D\L	me-	Me-	.	.	.	.	.	.	4r	.	.	.	.
.	.	.	.	.	8cc#\	.	8E\J	.	.	.	.	.	.	.	.	.	.	.	.	.
4D\	.	.	4a/	.	8dd\	.	8F#\L	-mor	-mor	.	.	.	.	.	.	4r	.	.	.	.
.	.	.	.	.	8ee\J	.	8G\J	.	.	.	.	.	.	.	.	.	.	.	.	.
=54	=54	=54	=54	=54	=54	=54	=54	=54	=54	=54	=54	=54	=54	=54	=54	=54	=54	=54	=54	=54
4D\	.	.	4a/	.	4ff#\	.	4A\	e-	e-	.	.	.	.	.	.	0.r	.	.	0.r	0.r
!	!	!	!LO:SIC:o=4b/	!	!	!	!	!	!	!	!	!	!	!	!	!	!	!	!	!
4D\	.	.	4a	.	4ff#\	.	8F#\L	-rit	-rit	.	.	.	.	.	.	.	.	.	.	.
.	.	.	.	.	.	.	8D\J	.	.	.	.	.	.	.	.	.	.	.	.	.
4D\	6 4	.	4b/	.	4gg\	.	8G\L	in	in	.	.	.	.	.	.	.	.	.	.	.
.	.	.	.	.	.	.	8B\J	.	.	.	.	.	.	.	.	.	.	.	.	.
=55	=55	=55	=55	=55	=55	=55	=55	=55	=55	=55	=55	=55	=55	=55	=55	=55	=55	=55	=55	=55
4D\	x 7	.	4a/	.	4ff#\	.	8A\	Sae-	sae-	0.r	.	.	0.r	.	.	.	.	.	.	.
.	.	.	.	.	.	.	8F#\	-cu-	-cu-	.	.	.	.	.	.	.	.	.	.	.
4F#\	.	.	4a/	.	4ff#\	.	4D\	-lum	-lum	.	.	.	.	.	.	.	.	.	.	.
4D\	.	.	4a/	.	4ff#\	.	8E\	te-	te-	.	.	.	.	.	.	.	.	.	.	.
.	.	.	.	.	.	.	8F#\	-sta-	-sta-	.	.	.	.	.	.	.	.	.	.	.
!	!	!	!	!	!	!	!LO:LB:g=original	!	!	!	!	!	!	!	!	!	!	!	!	!
=56	=56	=56	=56	=56	=56	=56	=56	=56	=56	=56	=56	=56	=56	=56	=56	=56	=56	=56	=56	=56
4C#X/	6: 5:	.	4a/	.	4ee\	.	8G\	-men-	-men-	.	.	.	.	.	.	.	.	.	.	.
.	.	.	.	.	.	.	16E\LL	-ti	-ti	.	.	.	.	.	.	.	.	.	.	.
.	.	.	.	.	.	.	16F#\JJ	.	.	.	.	.	.	.	.	.	.	.	.	.
4C#/	.	.	4a/	.	4ee\	.	8A\L	ſu-	ſu-	.	.	.	.	.	.	.	.	.	.	.
.	.	.	.	.	.	.	8B\J	.	.	.	.	.	.	.	.	.	.	.	.	.
4C#/	.	.	4a/	.	4ee\	.	8A\L	.	.	.	.	.	.	.	.	.	.	.	.	.
.	.	.	.	.	.	.	8G\J	.	.	.	.	.	.	.	.	.	.	.	.	.
=57	=57	=57	=57	=57	=57	=57	=57	=57	=57	=57	=57	=57	=57	=57	=57	=57	=57	=57	=57	=57
4D\	.	.	4a/	.	4ff#\	.	8F#\	-i	-i	.	.	.	.	.	.	.	.	.	.	.
.	.	.	.	.	.	.	8A\	Vir-	vir-	.	.	.	.	.	.	.	.	.	.	.
4D\	.	.	4a/	.	4ff#\	.	8A\L	-tu-	-tu-	.	.	.	.	.	.	.	.	.	.	.
.	.	.	.	.	.	.	8B\J	.	.	.	.	.	.	.	.	.	.	.	.	.
4r	.	.	4r	.	4r	.	8c#X\L	-tem	-tem	.	.	.	.	.	.	.	.	.	.	.
.	.	.	.	.	.	.	8d\J	.	.	.	.	.	.	.	.	.	.	.	.	.
!LO:LB:g=original	!	!	!	!	!	!	!	!	!	!	!	!	!	!	!	!	!	!	!	!
=58	=58	=58	=58	=58	=58	=58	=58	=58	=58	=58	=58	=58	=58	=58	=58	=58	=58	=58	=58	=58
4AA/	x #	.	8a/	.	2gg	.	8c#X\L	o-	o-	.	.	.	.	.	.	0.r	.	.	0.r	0.r
.	.	.	4a/	.	.	.	8e\J	.	.	.	.	.	.	.	.	.	.	.	.	.
4C#X/	6 5	.	.	.	.	.	8c#\L	-pe-	-pe-	.	.	.	.	.	.	.	.	.	.	.
.	.	.	4a/	.	.	.	8A\J	.	.	.	.	.	.	.	.	.	.	.	.	.
4D\	.	.	.	.	8ff#\L	.	4d\	-rum	-rum	.	.	.	.	.	.	.	.	.	.	.
.	.	.	8a/	.	8aa\J	.	.	.	.	.	.	.	.	.	.	.	.	.	.	.
=59	=59	=59	=59	=59	=59	=59	=59	=59	=59	=59	=59	=59	=59	=59	=59	=59	=59	=59	=59	=59
4AA/	x #	.	8a/	.	2gg\	.	8c#X\L	ſu-	ſu-	0.r	.	.	0.r	.	.	.	.	.	.	.
.	.	.	4a/	.	.	.	8e\J	.	.	.	.	.	.	.	.	.	.	.	.	.
4D\	6 x	.	.	.	.	.	8c#\L	-o-	-o-	.	.	.	.	.	.	.	.	.	.	.
.	.	.	4a/	.	.	.	8A\J	.	.	.	.	.	.	.	.	.	.	.	.	.
4F#\	.	.	.	.	8ff#\L	.	4d\	-rum	-rum	.	.	.	.	.	.	.	.	.	.	.
.	.	.	8a/	.	8dd\J	.	.	.	.	.	.	.	.	.	.	.	.	.	.	.
=60	=60	=60	=60	=60	=60	=60	=60	=60	=60	=60	=60	=60	=60	=60	=60	=60	=60	=60	=60	=60
4AA/	x #:	.	4a/	.	4cc#\	.	8c#X\L	an-	an-	.	.	.	.	.	.	.	.	.	.	.
.	.	.	.	.	.	.	8e\J	.	.	.	.	.	.	.	.	.	.	.	.	.
4A\	.	.	4a/	.	4cc#\	.	8c#\L	-nun-	-nun-	.	.	.	.	.	.	.	.	.	.	.
.	.	.	.	.	.	.	8A\J	.	.	.	.	.	.	.	.	.	.	.	.	.
4G\	.	.	4a/	.	4cc#\	.	8B\L	-ti-	-ti-	.	.	.	.	.	.	.	.	.	.	.
.	.	.	.	.	.	.	8c#\J	.	.	.	.	.	.	.	.	.	.	.	.	.
!	!	!	!	!	!	!	!LO:LB:g=original	!	!	!	!	!	!	!	!	!	!	!	!	!
=61	=61	=61	=61	=61	=61	=61	=61	=61	=61	=61	=61	=61	=61	=61	=61	=61	=61	=61	=61	=61
4F#\	6: x	.	4f#/	.	4dd\	.	8d\L	-a-	-a-	.	.	.	.	.	.	.	.	.	.	.
.	.	.	.	.	.	.	8A\J	.	.	.	.	.	.	.	.	.	.	.	.	.
4F#\	.	.	4f#/	.	4dd\	.	4A\	-bit	-bit	.	.	.	.	.	.	.	.	.	.	.
4F#\	.	.	4f#/	.	4dd\	.	8F#\L	po-	po-	.	.	.	.	.	.	.	.	.	.	.
.	.	.	.	.	.	.	8G\J	.	.	.	.	.	.	.	.	.	.	.	.	.
=62	=62	=62	=62	=62	=62	=62	=62	=62	=62	=62	=62	=62	=62	=62	=62	=62	=62	=62	=62	=62
4G\	6 x	.	4g/	.	4ee\	.	8B\	-pu-	-pu-	.	.	.	.	.	.	0.r	.	.	2.r	2.r
.	.	.	.	.	.	.	8G\	-lu	-lo	.	.	.	.	.	.	.	.	.	.	.
4A\	x 4	.	4f#/	.	4dd\	.	4A\	ſu-	su-	.	.	.	.	.	.	.	.	.	.	.
4AA/	x #	.	4e/	.	4cc#\	.	4AA/	.	.	.	.	.	.	.	.	.	.	.	.	.
!	!	!	!	!	!LO:LB:g=original	!	!	!	!	!	!	!	!	!	!	!	!	!	!	!
=63	=63	=63	=63	=63	=63	=63	=63	=63	=63	=63	=63	=63	=63	=63	=63	=63	=63	=63	=63	=63
!	!	!	!	!LO:MO:mod=!LO&colon;DY&colon;ed=brack	!	!	!	!	!	!	!	!	!	!	!	!	!	!	!	!
!	!	!	!	!null	!	!	!	!	!	!	!	!	!	!	!	!	!	!	!	!
!	!	!LO:DY:a:t=for:mod=%s	!	!LO:MO:null:mod=f	!	!LO:DY:a:t=for.:mod=%s	!	!	!	!	!	!	!	!	!	!	!	!	!	!
[<2.D\	.	f	8d/L	.	8dd\L	f	4D\	-o	-o.	0.r	.	.	0.r	.	.	.	.	.	2.d/	2.a\
.	.	.	16e/L	.	16ee\L	.	.	.	.	.	.	.	.	.	.	.	.	.	.	.
.	.	.	16f#/JJ	.	16ff#JJ\	.	.	.	.	.	.	.	.	.	.	.	.	.	.	.
.	.	.	4d/	.	4dd\	.	4r	.	.	.	.	.	.	.	.	.	.	.	.	.
.	.	.	8f#/L	.	8ff#\L	.	4r	.	.	.	.	.	.	.	.	.	.	.	.	.
.	.	.	8g/J	.	8gg\J	.	.	.	.	.	.	.	.	.	.	.	.	.	.	.
!	!	!	!LO:LB:g=original	!	!	!	!	!	!	!	!	!	!	!	!	!	!	!	!	!
=64	=64	=64	=64	=64	=64	=64	=64	=64	=64	=64	=64	=64	=64	=64	=64	=64	=64	=64	=64	=64
2.D\_<	.	.	8a/L	.	8aa\L	.	1.r	.	.	.	.	.	.	.	.	.	.	.	2.d/	2.a\
.	.	.	8f#/	.	8ff#\	.	.	.	.	.	.	.	.	.	.	.	.	.	.	.
.	.	.	8d/	.	8dd\	.	.	.	.	.	.	.	.	.	.	.	.	.	.	.
.	.	.	8f#/J	.	8ff#\J	.	.	.	.	.	.	.	.	.	.	.	.	.	.	.
.	.	.	16d/LL	.	16dd\LL	.	.	.	.	.	.	.	.	.	.	.	.	.	.	.
.	.	.	16c#X/	.	16cc#\	.	.	.	.	.	.	.	.	.	.	.	.	.	.	.
.	.	.	16B/	.	16b\	.	.	.	.	.	.	.	.	.	.	.	.	.	.	.
.	.	.	16A/JJ	.	16aJJ\	.	.	.	.	.	.	.	.	.	.	.	.	.	.	.
=65	=65	=65	=65	=65	=65	=65	=65	=65	=65	=65	=65	=65	=65	=65	=65	=65	=65	=65	=65	=65
2.D\_<	.	.	8d/L	.	8ddL\	.	.	.	.	.	.	.	.	.	.	.	.	.	2.d/	2.a\
.	.	.	16e/L	.	16ee\L	.	.	.	.	.	.	.	.	.	.	.	.	.	.	.
.	.	.	16f#/JJ	.	16ff#JJ\	.	.	.	.	.	.	.	.	.	.	.	.	.	.	.
.	.	.	4d/	.	4dd\	.	.	.	.	.	.	.	.	.	.	.	.	.	.	.
.	.	.	8f#/L	.	8ff#\L	.	.	.	.	.	.	.	.	.	.	.	.	.	.	.
.	.	.	8g/J	.	8gg\J	.	.	.	.	.	.	.	.	.	.	.	.	.	.	.
=66	=66	=66	=66	=66	=66	=66	=66	=66	=66	=66	=66	=66	=66	=66	=66	=66	=66	=66	=66	=66
2.D\]	.	.	8a/L	.	8aaL\	.	2.r	.	.	.	.	.	.	.	.	2.r	.	.	2.d/	2.a\
.	.	.	8f#/	.	8ff#\	.	.	.	.	.	.	.	.	.	.	.	.	.	.	.
.	.	.	8d/	.	8dd\	.	.	.	.	.	.	.	.	.	.	.	.	.	.	.
.	.	.	8f#/J	.	8ff#J\	.	.	.	.	.	.	.	.	.	.	.	.	.	.	.
.	.	.	4A/	.	4a/	.	.	.	.	.	.	.	.	.	.	.	.	.	.	.
!	!	!	!	!	!	!	!	!	!	!	!	!	!	!	!	!	!	!	!	!LO:LB:g=original
=67	=67	=67	=67	=67	=67	=67	=67	=67	=67	=67	=67	=67	=67	=67	=67	=67	=67	=67	=67	=67
!!LO:TX:a:t= :mod=Tutti
!LO:TX:a:t=Tutti:rj:mod=	!	!	!	!	!	!	!	!	!	!	!	!	!	!	!	!	!	!	!	!
4D\	.	.	4f#/ 4a/	.	4dd\	.	2d\	Ut	Ut	2d\	Ut	Ut	2a\	Ut	Ut	2ff#\	Ut	Ut	2.d/	2.a\
4d\	7: x	.	4f#/ 4a/	.	8ee\L	.	.	.	.	.	.	.	.	.	.	.	.	.	.	.
.	.	.	.	.	8dd\	.	.	.	.	.	.	.	.	.	.	.	.	.	.	.
4d\	.	.	4f#/ 4a/	.	8aa\	.	4d\	det	det	4d\	det	det	4a\	det	det	4ff#\	det	det	.	.
.	.	.	.	.	8ff#J	.	.	.	.	.	.	.	.	.	.	.	.	.	.	.
!LO:LB:g=original	!	!	!	!	!	!	!	!	!	!	!	!	!	!	!	!	!	!	!	!
=68	=68	=68	=68	=68	=68	=68	=68	=68	=68	=68	=68	=68	=68	=68	=68	=68	=68	=68	=68	=68
4cn\	.	.	4f#/ 4a/	.	16dd\LL	.	4cn\	il-	il-	4d\	il-	il-	4a\	il-	il-	4ff#\	il-	il-	2.d/	2.a\
.	.	.	.	.	16cc\	.	.	.	.	.	.	.	.	.	.	.	.	.	.	.
.	.	.	.	.	16dd\	.	.	.	.	.	.	.	.	.	.	.	.	.	.	.
.	.	.	.	.	16ee\JJ	.	.	.	.	.	.	.	.	.	.	.	.	.	.	.
4c\	.	.	4f#/ 4a/	.	8ff#L\	.	4c\	-lis	-lis	4d\	-lis	-lis	4a\	-lis	-lis	4ff#\	-lis	-lis	.	.
.	.	.	.	.	8aa\	.	.	.	.	.	.	.	.	.	.	.	.	.	.	.
4c\	.	.	4f#/ 4a/	.	8dd\	.	4c\	hae-	hae-	4d\	hae-	hae-	4a\	hae-	hae-	4ff#\	hae-	hae-	.	.
.	.	.	.	.	8ff#J\	.	.	.	.	.	.	.	.	.	.	.	.	.	.	.
!	!	!	!	!	!	!	!	!	!	!	!	!	!	!	!	!	!	!	!LO:LB:g=original	!
=69	=69	=69	=69	=69	=69	=69	=69	=69	=69	=69	=69	=69	=69	=69	=69	=69	=69	=69	=69	=69
!	!	!	!	!	!	!	!	!	!	!	!	!	!	!	!	!	!	!	!LO:MO:mod=*null:null	!
*	*	*	*	*	*	*	*	*	*	*	*	*	*	*	*	*	*	*	*2\right	*
4B\	6: x	.	4g/ 4b/	.	16gg\LL	.	8B\	-re-	-re-	8d\	-re-	-re-	8b\	-re-	-re-	8gg\	-re-	-re-	2.g\	2.b\
.	.	.	.	.	16ff#\	.	.	.	.	.	.	.	.	.	.	.	.	.	.	.
.	.	.	.	.	16gg\	.	8B\	-di-	-di-	8d\	-di-	-di-	8b\	-di-	-di-	8gg\	-di-	-di-	.	.
.	.	.	.	.	16aaJJ\	.	.	.	.	.	.	.	.	.	.	.	.	.	.	.
4G\	.	.	4g/ 4b/	.	8gg\L	.	4G\	-ta-	-ta-	4d\	-ta-	-ta-	4b\	-ta-	-ta-	4gg\	-ta-	-ta-	.	.
.	.	.	.	.	8bb\	.	.	.	.	.	.	.	.	.	.	.	.	.	.	.
4B\	.	.	4g/ 4b/	.	8dd\	.	4B\	-tem	-tem	4d\	-tem	-tem	4b\	-tem	-tem	4gg\	-tem	-tem	.	.
.	.	.	.	.	8ggJ\	.	.	.	.	.	.	.	.	.	.	.	.	.	.	.
!	!	!	!	!	!LO:LB:g=original	!	!	!	!	!	!	!	!	!	!	!	!	!	!	!
=70	=70	=70	=70	=70	=70	=70	=70	=70	=70	=70	=70	=70	=70	=70	=70	=70	=70	=70	=70	=70
4d\	x 4	.	4g/ 4b/	.	8ggL\	.	8d\	gen-	gen-	8d\	gen-	gen-	8b\	gen-	gen-	8gg\	gen-	gen-	4g\	4b\
.	.	.	.	.	16ff#\L	.	8d\	-ti-	-ti-	8d\	-ti-	-ti-	8b\	-ti-	-ti-	8gg\	-ti-	-ti-	.	.
.	.	.	.	.	16gg\JJ	.	.	.	.	.	.	.	.	.	.	.	.	.	.	.
!	!	!	!	!	!	!	!LO:LB:g=original	!	!	!	!	!	!	!	!	!LO:LB:g=original	!	!	!	!
4D\	x 3	.	4f#/ 4a/	.	8ff#\L	.	4D\	-um	-um	4d\	-um	-um	4a\	-um	-um	4ff#\	-um	-um	4d/	4a\
.	.	.	.	.	8aa\J	.	.	.	.	.	.	.	.	.	.	.	.	.	.	.
4r	.	.	16g/LL	.	16gg\LL	.	4r	.	.	4r	.	.	4r	.	.	4r	.	.	4r	4r
.	.	.	16f#/	.	16ff#\	.	.	.	.	.	.	.	.	.	.	.	.	.	.	.
.	.	.	16e/	.	16ee\	.	.	.	.	.	.	.	.	.	.	.	.	.	.	.
.	.	.	16d/JJ	.	16dd\JJ	.	.	.	.	.	.	.	.	.	.	.	.	.	.	.
=71	=71	=71	=71	=71	=71	=71	=71	=71	=71	=71	=71	=71	=71	=71	=71	=71	=71	=71	=71	=71
4G\	.	.	16g/LL	.	16ggLL\	.	4G\	o-	o-	4d\	o-	o-	4b\	o-	o-	4gg\	o-	o-	2.g\	2.b\
.	.	.	16f#/	.	16ff#\	.	.	.	.	.	.	.	.	.	.	.	.	.	.	.
.	.	.	16g/	.	16gg\	.	.	.	.	.	.	.	.	.	.	.	.	.	.	.
.	.	.	16a/JJ	.	16aa\JJ	.	.	.	.	.	.	.	.	.	.	.	.	.	.	.
4B\	.	.	8g/L	.	8gg\L	.	4B\	-pe-	-pe-	4d\	-pe-	-pe-	4b\	-pe-	-pe-	4gg\	-pe-	-pe-	.	.
.	.	.	8d/	.	8dd\	.	.	.	.	.	.	.	.	.	.	.	.	.	.	.
4G\	.	.	8b/	.	8bb\	.	4G\	-ra	-ra	4d\	-ra	-ra	4b\	-ra	-ra	4gg\	-ra	-ra	.	.
.	.	.	8g/J	.	8gg\J	.	.	.	.	.	.	.	.	.	.	.	.	.	.	.
!	!	!	!LO:LB:g=original	!	!	!	!	!	!	!	!	!	!	!	!	!	!	!	!	!
=72	=72	=72	=72	=72	=72	=72	=72	=72	=72	=72	=72	=72	=72	=72	=72	=72	=72	=72	=72	=72
4D\	7: x	.	8f#/L	.	8ff#\L	.	4D\	ma-	ma-	4d\	ma-	ma-	4a\	ma-	ma-	4ff#\	ma-	ma-	2.d/	2.a\
.	.	.	8g/	.	8gg\	.	.	.	.	.	.	.	.	.	.	.	.	.	.	.
4d\	.	.	8a/	.	8aa\	.	4d\	-nu-	-nu-	4d\	-nu-	-nu-	4a\	-nu-	-nu-	4ff#\	-nu-	-nu-	.	.
.	.	.	8f#/J	.	8ff#\J	.	.	.	.	.	.	.	.	.	.	.	.	.	.	.
4c\	.	.	8d/L	.	8dd\L	.	4c\	-um	-um	4d\	-um	-um	4a\	-um	-um	4ff#\	-um	-um	.	.
.	.	.	16e/L	.	16ee\L	.	.	.	.	.	.	.	.	.	.	.	.	.	.	.
.	.	.	16f#/JJ	.	16ff#\JJ	.	.	.	.	.	.	.	.	.	.	.	.	.	.	.
!	!	!	!	!	!	!	!	!	!	!	!	!	!LO:LB:g=original	!	!	!	!	!	!	!
=73	=73	=73	=73	=73	=73	=73	=73	=73	=73	=73	=73	=73	=73	=73	=73	=73	=73	=73	=73	=73
4B\	6: x	.	16g/LL	.	16gg\LL	.	2B\	e-	e-	2d\	e-	e-	2b\	e-	e-	2gg\	e-	e-	2.g\	2.b\
.	.	.	16f#/	.	16ff#\	.	.	.	.	.	.	.	.	.	.	.	.	.	.	.
.	.	.	16g/	.	16gg\	.	.	.	.	.	.	.	.	.	.	.	.	.	.	.
.	.	.	16a/JJ	.	16aa\JJ	.	.	.	.	.	.	.	.	.	.	.	.	.	.	.
4B\	.	.	8g/L	.	8gg\L	.	.	.	.	.	.	.	.	.	.	.	.	.	.	.
.	.	.	8d/	.	8dd\	.	.	.	.	.	.	.	.	.	.	.	.	.	.	.
4G\	.	.	8b/	.	8bb\	.	4G\	-ius	-jus	4d\	-ius	-jus	4b\	-ius	-jus	4gg\	-ius	-jus	.	.
.	.	.	8g/J	.	8gg\J	.	.	.	.	.	.	.	.	.	.	.	.	.	.	.
!	!	!	!	!	!	!	!	!	!	!LO:LB:g=original	!	!	!	!	!	!	!	!	!	!
=74	=74	=74	=74	=74	=74	=74	=74	=74	=74	=74	=74	=74	=74	=74	=74	=74	=74	=74	=74	=74
4D\	7: x	.	8f#/L	.	8ff#\L	.	4D\	ve-	ve-	4d\	ve-	ve-	4a\	Ve-	ve-	4ff#\	Ve-	ve-	2.d/	2.a\
.	.	.	8g/	.	8gg\	.	.	.	.	.	.	.	.	.	.	.	.	.	.	.
4d\	.	.	8a/	.	8aa\	.	4d\	-ri-	-ri-	4d\	-ri-	-ri-	4a\	-ri-	-ri-	4ff#\	-ri-	-ri-	.	.
.	.	.	8f#/J	.	8ff#\J	.	.	.	.	.	.	.	.	.	.	.	.	.	.	.
4c\	.	.	8d/L	.	8dd\L	.	4c\	-tas	-tas	4d\	-tas	-tas	4a\	-tas	-tas	4ff#\	-tas	-tas	.	.
.	.	.	16e/L	.	16ee\L	.	.	.	.	.	.	.	.	.	.	.	.	.	.	.
.	.	.	16f#/JJ	.	16ff#\JJ	.	.	.	.	.	.	.	.	.	.	.	.	.	.	.
=75	=75	=75	=75	=75	=75	=75	=75	=75	=75	=75	=75	=75	=75	=75	=75	=75	=75	=75	=75	=75
8B\L	6 x	.	8g/L	.	8gg\L	.	8B\	et	et	8d\	et	et	8b\	et	et	8gg\	et	et	8g\L	8b\L
8c\J	6 x	.	8a/	.	8aa\	.	8c\	iu-	ju-	8e\	iu-	ju-	8cc\	Ju-	ju-	8aa\	Ju-	ju-	8a\J	8cc\J
!	!	!	!	!	!	!	!	!	!	!	!	!	!	!	!	!	!	!	!LO:SIC:o=4f#\	!
4d\	x 4	.	8b/	.	8gg\	.	4d\	-di-	-di-	4d\	-di-	-di-	4b\	-di-	-di-	4gg\	-di-	-di-	4g	4b\
.	.	.	8g/	.	8b\	.	.	.	.	.	.	.	.	.	.	.	.	.	.	.
4D\	x 3	.	8f#/	.	8a\	.	4D\	-ci-	-ci-	4d\	-ci-	-ci-	4a\	-ci-	-ci-	4ff#\	-ci-	-ci-	4d/	4a\
.	.	.	8a/J	.	8ff#\J	.	.	.	.	.	.	.	.	.	.	.	.	.	.	.
!	!	!	!	!	!LO:LB:g=original	!	!	!	!	!	!	!	!	!	!	!LO:LB:g=original	!	!	!	!
=76	=76	=76	=76	=76	=76	=76	=76	=76	=76	=76	=76	=76	=76	=76	=76	=76	=76	=76	=76	=76
!LO:TX:a:t=Solo:mod=	!	!	!	!	!	!	!	!	!	!	!	!	!	!	!	!	!	!	!	!
4G\	.	.	8g/L	.	8gg\L	.	4G\	-um	-um.	4d\	-um	-um.	4b\	-um	-um.	4gg\	-um	-um.	4B/	4g\
.	.	.	8b/J	.	8bb\J	.	.	.	.	.	.	.	.	.	.	.	.	.	.	.
4BB/	6: x	.	8g/L	.	8gg\L	.	4r	.	.	4r	.	.	4r	.	.	4r	.	.	4r	4r
.	.	.	8f#/	.	8ff#\	.	.	.	.	.	.	.	.	.	.	.	.	.	.	.
4BB/	.	.	8e/	.	8ee\	.	4r	.	.	4r	.	.	4r	.	.	4r	.	.	4r	4r
.	.	.	8d/J	.	8dd\J	.	.	.	.	.	.	.	.	.	.	.	.	.	.	.
!LO:LB:g=original	!	!	!	!	!	!	!	!	!	!	!	!	!	!	!	!	!	!	!	!
=77	=77	=77	=77	=77	=77	=77	=77	=77	=77	=77	=77	=77	=77	=77	=77	=77	=77	=77	=77	=77
4C/	.	.	8e/L	.	8ee\L	.	0.r	.	.	0.r	.	.	1.r	.	.	0.r	.	.	4r	4r
.	.	.	8g/	.	8gg\	.	.	.	.	.	.	.	.	.	.	.	.	.	.	.
4C/	.	.	8f#/	.	8ff#\	.	.	.	.	.	.	.	.	.	.	.	.	.	4r	4r
.	.	.	8g/	.	8gg\	.	.	.	.	.	.	.	.	.	.	.	.	.	.	.
4BB/	.	.	8a/	.	8aa\	.	.	.	.	.	.	.	.	.	.	.	.	.	8r	8r
.	.	.	8g/J	.	8gg\J	.	.	.	.	.	.	.	.	.	.	.	.	.	8g\	8b\
!	!	!	!	!	!	!	!	!	!	!	!	!	!	!	!	!	!	!	!LO:LB:g=original	!LO:LB:g=original
=78	=78	=78	=78	=78	=78	=78	=78	=78	=78	=78	=78	=78	=78	=78	=78	=78	=78	=78	=78	=78
4C/	6 x	.	8e/L	.	8ee\L	.	.	.	.	.	.	.	.	.	.	.	.	.	4a\	4cc\
.	.	.	8a/J	.	16dd\L	.	.	.	.	.	.	.	.	.	.	.	.	.	.	.
.	.	.	.	.	16cc\JJ	.	.	.	.	.	.	.	.	.	.	.	.	.	.	.
4D/	x 4	.	4g/	.	4b\	.	.	.	.	.	.	.	.	.	.	.	.	.	4g\	4b\
4DD/	x 3	.	4f#/	.	4a\	.	.	.	.	.	.	.	.	.	.	.	.	.	4d/	4a\
!	!	!	!LO:LB:g=original	!	!	!	!	!	!	!	!	!	!	!	!	!	!	!	!	!
=79	=79	=79	=79	=79	=79	=79	=79	=79	=79	=79	=79	=79	=79	=79	=79	=79	=79	=79	=79	=79
4GG/	.	.	8g/L	.	8b\L	.	.	.	.	.	.	.	2.r	.	.	.	.	.	4B/	4g\
.	.	.	8b/J	.	8dd\J	.	.	.	.	.	.	.	.	.	.	.	.	.	.	.
!	!	!	!	!	!	!	!	!	!	!	!	!	!	!	!	!	!	!	!	!LO:SIC:o=4f#\
4G\	.	.	4g/	.	4b\	.	.	.	.	.	.	.	.	.	.	.	.	.	4B/	4g
4r	.	.	4r	.	4r	.	.	.	.	.	.	.	.	.	.	.	.	.	4r	4r
=80	=80	=80	=80	=80	=80	=80	=80	=80	=80	=80	=80	=80	=80	=80	=80	=80	=80	=80	=80	=80
!	!	!	!	!	!	!	!	!	!	!	!	!	!LO:MO:mod=!LO&colon;TX&colon;a&colon;i&colon;t=Solo	!	!	!	!	!	!	!
!	!	!LO:DY:a:rj:t=p.:mod=%s	!	!LO:DY:a:t=pia:mod=%s	!	!LO:DY:a:t=p.:mod=%s	!	!	!	!	!	!	!LO:TX:a:t=Solo:rj	!	!	!	!	!	!	!
4G\	.	p	4B/ 4d/	p	8g/L	p	.	.	.	.	.	.	8g\L	Fi-	Fi-	.	.	.	0.r	0.r
.	.	.	.	.	8b/J	.	.	.	.	.	.	.	8b\J	.	.	.	.	.	.	.
4GG/	.	.	4B/ 4d/	.	4dd\	.	.	.	.	.	.	.	4dd\	-de-	-de-	.	.	.	.	.
4BB/	6 x	.	4B/ 4d/	.	16cc/LL	.	.	.	.	.	.	.	16cc\LL	-li-	-li-	.	.	.	.	.
.	.	.	.	.	16b/	.	.	.	.	.	.	.	16b\JJ	.	.	.	.	.	.	.
.	.	.	.	.	16a/	.	.	.	.	.	.	.	16a\LL	-a	-a	.	.	.	.	.
.	.	.	.	.	16g/JJ	.	.	.	.	.	.	.	16g\JJ	.	.	.	.	.	.	.
=81	=81	=81	=81	=81	=81	=81	=81	=81	=81	=81	=81	=81	=81	=81	=81	=81	=81	=81	=81	=81
4D\	.	.	4A/ 4d/	.	4f#/	.	0.r	.	.	0.r	.	.	4f#\	o-	o-	0.r	.	.	.	.
4DD/	.	.	4A/ 4d/	.	8f#L/	.	.	.	.	.	.	.	8f#\L	-mni-	-mni-	.	.	.	.	.
.	.	.	.	.	8a/	.	.	.	.	.	.	.	8a\J	.	.	.	.	.	.	.
!	!	!	!	!	!	!	!	!	!	!	!	!	!LO:LB:g=original	!	!	!	!	!	!	!
4D\	.	.	4A/ 4d/	.	8d/	.	.	.	.	.	.	.	8d\L	-a	-a	.	.	.	.	.
.	.	.	.	.	8f#/J	.	.	.	.	.	.	.	8f#\J	.	.	.	.	.	.	.
=82	=82	=82	=82	=82	=82	=82	=82	=82	=82	=82	=82	=82	=82	=82	=82	=82	=82	=82	=82	=82
4G\	.	.	4B/ 4d	.	8g/L	.	.	.	.	.	.	.	8g\L	man-	man-	.	.	.	.	.
.	.	.	.	.	8b/J	.	.	.	.	.	.	.	8b\J	.	.	.	.	.	.	.
4GG/	.	.	4B/ 4d	.	4dd\	.	.	.	.	.	.	.	4dd\	-da-	-da-	.	.	.	.	.
4BB/	6 x	.	4B/ 4d	.	16cc/LL	.	.	.	.	.	.	.	16cc\LL	.	.	.	.	.	.	.
.	.	.	.	.	16b/	.	.	.	.	.	.	.	16b\JJ	.	.	.	.	.	.	.
.	.	.	.	.	16a/	.	.	.	.	.	.	.	16a\LL	-ta	-ta	.	.	.	.	.
.	.	.	.	.	16gJJ/	.	.	.	.	.	.	.	16g\JJ	.	.	.	.	.	.	.
!	!	!	!	!	!LO:LB:g=original	!	!	!	!	!	!	!	!	!	!	!	!	!	!	!
=83	=83	=83	=83	=83	=83	=83	=83	=83	=83	=83	=83	=83	=83	=83	=83	=83	=83	=83	=83	=83
4D/	7: x	.	4A/ 4d/	.	8f#/L	.	.	.	.	.	.	.	8f#\L	e-	e-	.	.	.	.	.
.	.	.	.	.	8a	.	.	.	.	.	.	.	8a\	.	.	.	.	.	.	.
4C/	.	.	4A/ 4d/	.	8d	.	.	.	.	.	.	.	8d\	.	.	.	.	.	.	.
.	.	.	.	.	8f#J	.	.	.	.	.	.	.	8f#\J	.	.	.	.	.	.	.
!	!	!	!LO:SIC:o=4A/ 4d/	!	!	!	!	!	!	!	!	!	!	!	!	!	!	!	!	!
4BB/	6 x	.	4G 4d	.	4g	.	.	.	.	.	.	.	4g\	-ius	-jus	.	.	.	.	.
=84	=84	=84	=84	=84	=84	=84	=84	=84	=84	=84	=84	=84	=84	=84	=84	=84	=84	=84	=84	=84
!LO:SIC:o=4BB/	!	!	!	!	!	!	!	!	!	!	!	!	!	!	!	!	!	!	!	!
4C	6: x	.	4c/	.	8eL/	.	.	.	.	.	.	.	8e\L	Con-	con-	.	.	.	0.r	0.r
.	.	.	.	.	16f#L/	.	.	.	.	.	.	.	16f#\L	.	.	.	.	.	.	.
.	.	.	.	.	16g/JJ	.	.	.	.	.	.	.	16g\JJ	.	.	.	.	.	.	.
4C/	.	.	4e/	.	8a/L	.	.	.	.	.	.	.	8a\L	.	.	.	.	.	.	.
.	.	.	.	.	8b/	.	.	.	.	.	.	.	8b\J	.	.	.	.	.	.	.
4C/	.	.	4e/	.	8cc/	.	.	.	.	.	.	.	8cc\L	-fir-	-fir-	.	.	.	.	.
.	.	.	.	.	8a/J	.	.	.	.	.	.	.	8a\J	.	.	.	.	.	.	.
=85	=85	=85	=85	=85	=85	=85	=85	=85	=85	=85	=85	=85	=85	=85	=85	=85	=85	=85	=85	=85
.	.	.	.	.	8qqg	.	.	.	.	.	.	.	.	.	.	.	.	.	.	.
4D/	7: x	.	4d/	.	4f#/	.	0.r	.	.	0.r	.	.	4f#\	-ma-	-ma-	0.r	.	.	.	.
4C/	.	.	4d/	.	8f#/L	.	.	.	.	.	.	.	8f#\L	-ta	-ta	.	.	.	.	.
.	.	.	.	.	8d/	.	.	.	.	.	.	.	8d\J	.	.	.	.	.	.	.
4BB/	6 x	.	4d/	.	8g/	.	.	.	.	.	.	.	8g\L	in	in	.	.	.	.	.
.	.	.	.	.	8b/J	.	.	.	.	.	.	.	8b\J	.	.	.	.	.	.	.
!LO:LB:g=original	!	!	!	!	!	!	!	!	!	!	!	!	!	!	!	!	!	!	!	!
=86	=86	=86	=86	=86	=86	=86	=86	=86	=86	=86	=86	=86	=86	=86	=86	=86	=86	=86	=86	=86
4C/	6 x	.	4e/	.	8a/L	.	.	.	.	.	.	.	8a\L	ſae-	ſae-	.	.	.	.	.
.	.	.	.	.	8cc/	.	.	.	.	.	.	.	8cc\J	.	.	.	.	.	.	.
!	!	!	!	!	!	!	!	!	!	!	!	!	!LO:LB:g=original	!	!	!	!	!	!	!
4C/	.	.	4e/	.	8cc/	.	.	.	.	.	.	.	8cc\L	-cu-	-cu-	.	.	.	.	.
.	.	.	.	.	8a/	.	.	.	.	.	.	.	8a\J	.	.	.	.	.	.	.
4C#X/	5 x	.	4e/	.	8b/	.	.	.	.	.	.	.	8b\L	-lum	-lum	.	.	.	.	.
.	.	.	.	.	8g/J	.	.	.	.	.	.	.	8g\J	.	.	.	.	.	.	.
=87	=87	=87	=87	=87	=87	=87	=87	=87	=87	=87	=87	=87	=87	=87	=87	=87	=87	=87	=87	=87
4D\	x 4	.	4B/	.	8g/L	.	.	.	.	.	.	.	8g\	ſae-	ſae-	.	.	.	.	.
.	.	.	.	.	16f#L/	.	.	.	.	.	.	.	8g\	-cu-	-cu-	.	.	.	.	.
.	.	.	.	.	16gJJ/	.	.	.	.	.	.	.	.	.	.	.	.	.	.	.
4DD/	x 3	.	4A/	.	4f#	.	.	.	.	.	.	.	4f#\	-li	-li	.	.	.	.	.
4r	.	.	4r	.	8d/L	.	.	.	.	.	.	.	8d\L	fac-	fac-	.	.	.	.	.
.	.	.	.	.	8f#J/	.	.	.	.	.	.	.	8f#\J	.	.	.	.	.	.	.
=88	=88	=88	=88	=88	=88	=88	=88	=88	=88	=88	=88	=88	=88	=88	=88	=88	=88	=88	=88	=88
4F#\	6: 5:	.	4d/	.	4a/	.	.	.	.	.	.	.	4a\	.	.	.	.	.	0.r	0.r
4F#\	.	.	4d/	.	8a/L	.	.	.	.	.	.	.	8a\L	-ta	-ta	.	.	.	.	.
.	.	.	.	.	8g	.	.	.	.	.	.	.	8g\J	.	.	.	.	.	.	.
4F#\	.	.	4d/	.	8a	.	.	.	.	.	.	.	8a\L	in	in	.	.	.	.	.
.	.	.	.	.	8cc/J	.	.	.	.	.	.	.	8cc\J	.	.	.	.	.	.	.
!LO:LB:g=original	!	!	!	!	!	!	!	!	!	!	!	!	!	!	!	!	!	!	!	!
=89	=89	=89	=89	=89	=89	=89	=89	=89	=89	=89	=89	=89	=89	=89	=89	=89	=89	=89	=89	=89
4G\	.	.	4d/	.	8b\L	.	1.r	.	.	1.r	.	.	8b\	ve-	ve-	1.r	.	.	.	.
.	.	.	.	.	16cc\L	.	.	.	.	.	.	.	16cc\LL	-ri-	-ri-	.	.	.	.	.
.	.	.	.	.	16ddJJ\	.	.	.	.	.	.	.	16dd\JJ	.	.	.	.	.	.	.
4G\	.	.	4d/	.	8cc\L	.	.	.	.	.	.	.	8cc\L	-ta-	-ta-	.	.	.	.	.
.	.	.	.	.	8b\J	.	.	.	.	.	.	.	8b\J	.	.	.	.	.	.	.
4B\	6 x	.	4d/	.	8a/L	.	.	.	.	.	.	.	8a\	te	te	.	.	.	.	.
.	.	.	.	.	8g/J	.	.	.	.	.	.	.	8g\	et	et	.	.	.	.	.
!	!	!	!	!	!LO:LB:g=original	!	!	!	!	!	!	!	!	!	!	!	!	!	!	!
=90	=90	=90	=90	=90	=90	=90	=90	=90	=90	=90	=90	=90	=90	=90	=90	=90	=90	=90	=90	=90
4c\	6 x	.	4c/	.	8cc\L	.	.	.	.	.	.	.	8cc\	ae-	ae-	.	.	.	.	.
.	.	.	.	.	8a\J	.	.	.	.	.	.	.	8a\	-qui-	-qui-	.	.	.	.	.
4d\	x 4	.	4B/	.	4g/	.	.	.	.	.	.	.	4g\	-ta-	-ta-	.	.	.	.	.
4D\	x 7	.	4A/	.	4f#	.	.	.	.	.	.	.	4f#\	.	.	.	.	.	.	.
!	!	!	!LO:LB:g=original	!	!	!	!	!	!	!	!	!	!LO:LB:g=original	!	!	!	!	!	!	!
=91	=91	=91	=91	=91	=91	=91	=91	=91	=91	=91	=91	=91	=91	=91	=91	=91	=91	=91	=91	=91
4G\	.	.	16B/LL	.	16g/LL	.	2.r	.	.	2.r	.	.	4g\	-te	-te.	2.r	.	.	.	.
.	.	.	16A/	.	16f#/	.	.	.	.	.	.	.	.	.	.	.	.	.	.	.
.	.	.	16B/	.	16g/	.	.	.	.	.	.	.	.	.	.	.	.	.	.	.
.	.	.	16c/JJ	.	16a/JJ	.	.	.	.	.	.	.	.	.	.	.	.	.	.	.
!	!	!	!LO:TX:t=P:problem=mixed beam	!LO:DY:a:t=for:mod= 	!	!LO:DY:a:t=for.:mod= 	!	!	!	!	!	!	!	!	!	!	!	!	!	!
4r	.	.	8d/L	f	8b\L	f	.	.	.	.	.	.	4r	.	.	.	.	.	.	.
!	!	!	!	!LO:MO:null:mod=f	!	!LO:MO:null:mod=f	!	!	!	!	!	!	!	!	!	!	!	!	!	!
.	.	.	8b\	.	8dd\	.	.	.	.	.	.	.	.	.	.	.	.	.	.	.
4r	.	.	8cc\	.	8ee\	.	.	.	.	.	.	.	4r	.	.	.	.	.	.	.
!	!	!	!LO:SIC:o=8b\J	!	!	!	!	!	!	!	!	!	!	!	!	!	!	!	!	!
.	.	.	8ccJ	.	8ff#J\	.	.	.	.	.	.	.	.	.	.	.	.	.	.	.
=92	=92	=92	=92	=92	=92	=92	=92	=92	=92	=92	=92	=92	=92	=92	=92	=92	=92	=92	=92	=92
!!LO:TX:a:t= :mod=Tutti
!	!	!LO:MO:mod=!LO&colon;DY&colon;ed=brack	!	!	!	!	!	!	!	!	!	!	!	!	!	!	!	!	!	!
!	!	!null	!	!	!	!	!	!	!	!	!	!	!	!	!	!	!	!	!	!
!LO:TX:a:t=Tutti:mod=	!	!LO:MO:null:mod=f	!	!	!	!	!	!	!	!	!	!	!	!	!	!	!	!	!	!
4G\	.	.	4b\	.	8gg\L	.	4G\	Re-	Re-	4G/	Re-	Re-	4b\	Re-	Re-	4dd\	Re-	Re-	4G/	4g\
.	.	.	.	.	8dd\	.	.	.	.	.	.	.	.	.	.	.	.	.	.	.
4G\	.	.	8b\L	.	8dd\	.	4G\	-dem-	-dem-	4G/	-dem-	-dem-	4b\	-dem-	-dem-	4dd\	-dem-	-dem-	4G/	4g\
.	.	.	8g\	.	8b\	.	.	.	.	.	.	.	.	.	.	.	.	.	.	.
4G\	6: 4:	.	8ee\	.	8gg\	.	4G\	-pti-	-pti-	4G/	-pti-	-pti-	4cc\	-pti-	-pti-	4ee\	-pti-	-pti-	4G/	4g\
.	.	.	8cc\J	.	8ee\J	.	.	.	.	.	.	.	.	.	.	.	.	.	.	.
!	!	!	!	!	!	!	!LO:LB:g=original	!	!	!	!	!	!	!	!	!	!	!	!	!
=93	=93	=93	=93	=93	=93	=93	=93	=93	=93	=93	=93	=93	=93	=93	=93	=93	=93	=93	=93	=93
4G\	.	.	8cc\L	.	8ee\L	.	4G\	-o-	-o-	4G/	-o-	-o-	4cc\	-o-	-o-	4ee\	-o-	-o-	4G/	4g\
.	.	.	16b\L	.	16dd\L	.	.	.	.	.	.	.	.	.	.	.	.	.	.	.
.	.	.	16cc\JJ	.	16ff#\JJ	.	.	.	.	.	.	.	.	.	.	.	.	.	.	.
4GG/	5 3	.	4b\	.	8dd\L	.	4G\	-nem	-nem	4G/	-nem	-nem	4b\	-nem	-nem	4dd\	-nem	-nem	4G/	4g\
.	.	.	.	.	8gg\J	.	.	.	.	.	.	.	.	.	.	.	.	.	.	.
4G\	.	.	4b\	.	16gg\LL	.	8G\	mi-	mi-	8d\	mi-	mi-	8b\	mi-	mi-	8dd\	mi-	mi-	4B/	4g\
.	.	.	.	.	16ff#\	.	.	.	.	.	.	.	.	.	.	.	.	.	.	.
.	.	.	.	.	16ee\	.	8G\	-sit	-sit	8d\	-sit	-sit	8b\	-ſit	-ſit	8dd\	-sit	-sit	.	.
.	.	.	.	.	16dd\JJ	.	.	.	.	.	.	.	.	.	.	.	.	.	.	.
=94	=94	=94	=94	=94	=94	=94	=94	=94	=94	=94	=94	=94	=94	=94	=94	=94	=94	=94	=94	=94
4F#\	6: 5:	.	4a/	.	8dd\L	.	4F#\	po-	po-	4d\	po-	po-	4a\	po-	po-	4dd\	po-	po-	4d/	4a\
.	.	.	.	.	8cc\J	.	.	.	.	.	.	.	.	.	.	.	.	.	.	.
4F#\	.	.	4a/	.	8a\L	.	4F#\	-pu-	-pu-	4d\	-pu-	-pu-	4a\	-pu-	-pu-	4cc\	-pu-	-pu-	4d/	4a\
.	.	.	.	.	16b\L	.	.	.	.	.	.	.	.	.	.	.	.	.	.	.
.	.	.	.	.	16cc\JJ	.	.	.	.	.	.	.	.	.	.	.	.	.	.	.
4F#\	.	.	4a/	.	8dd\L	.	4F#\	-lo	-lo	4d\	-lo	-lo	4a\	-lo	-lo	4cc\	-lo	-lo	4d/	4a\
.	.	.	.	.	8cc\J	.	.	.	.	.	.	.	.	.	.	.	.	.	.	.
=95	=95	=95	=95	=95	=95	=95	=95	=95	=95	=95	=95	=95	=95	=95	=95	=95	=95	=95	=95	=95
4G\	x 4	.	8a/L	.	8cc\L	.	4G\	ſu-	ſu-	4d\	ſu-	ſu-	4a\	ſu-	ſu-	4cc\	ſu-	ſu-	4d/	4a\
.	.	.	16g/L	.	16b\L	.	.	.	.	.	.	.	.	.	.	.	.	.	.	.
.	.	.	16a/JJ	.	16cc\JJ	.	.	.	.	.	.	.	.	.	.	.	.	.	.	.
4GG/	x 3	.	8g/L	.	8b\L	.	4G\	-o	-o	4d\	-o	-o	4g\	-o	-o	4b\	-o	-o	4B/	4g\
.	.	.	8b/	.	8dd\	.	.	.	.	.	.	.	.	.	.	.	.	.	.	.
4r	.	.	8a/	.	8cc\	.	4r	.	.	4r	.	.	4r	.	.	4r	.	.	4r	4r
.	.	.	8g/J	.	8b\J	.	.	.	.	.	.	.	.	.	.	.	.	.	.	.
!	!	!	!	!	!	!	!	!	!	!LO:LB:g=original	!	!	!	!	!	!	!	!	!	!
=96	=96	=96	=96	=96	=96	=96	=96	=96	=96	=96	=96	=96	=96	=96	=96	=96	=96	=96	=96	=96
4F#\	6: 5:	.	4A/ 4d/	.	8a\L	.	2.F#\	man-	man-	2.d\	man-	man-	2.a\	man-	man-	2.cc\	man-	man-	2.d/	2.a\
.	.	.	.	.	8cc\J	.	.	.	.	.	.	.	.	.	.	.	.	.	.	.
!	!	!	!	!	!LO:LB:g=original	!	!	!	!	!	!	!	!	!	!	!	!	!	!	!
4F#\	.	.	4A/ 4d/	.	8cc\L	.	.	.	.	.	.	.	.	.	.	.	.	.	.	.
.	.	.	.	.	8a\	.	.	.	.	.	.	.	.	.	.	.	.	.	.	.
4F#\	.	.	4A/ 4d/	.	8cc\	.	.	.	.	.	.	.	.	.	.	.	.	.	.	.
.	.	.	.	.	8dd\J	.	.	.	.	.	.	.	.	.	.	.	.	.	.	.
!	!	!	!	!	!	!	!	!	!	!	!	!	!	!	!	!LO:LB:g=original	!	!	!	!
=97	=97	=97	=97	=97	=97	=97	=97	=97	=97	=97	=97	=97	=97	=97	=97	=97	=97	=97	=97	=97
4G\	.	.	4B/ 4d/	.	8b\L	.	4G\	-da-	-da-	2d\	-da-	-da-	2g\	-da-	-da-	2b\	-da-	-da-	2.B/	2.g\
.	.	.	.	.	16cc\L	.	.	.	.	.	.	.	.	.	.	.	.	.	.	.
.	.	.	.	.	16b\JJ	.	.	.	.	.	.	.	.	.	.	.	.	.	.	.
4B\	.	.	4B/ 4d/	.	8g/L	.	4B\	.	.	.	.	.	.	.	.	.	.	.	.	.
.	.	.	.	.	8a/	.	.	.	.	.	.	.	.	.	.	.	.	.	.	.
4G\	.	.	4B/ 4d/	.	8b/	.	4G\	-vit	-vit	4d\	-vit	-vit	4g\	-vit	-vit	4b\	-vit	-vit	.	.
.	.	.	.	.	8g/J	.	.	.	.	.	.	.	.	.	.	.	.	.	.	.
!	!	!	!	!	!	!	!	!	!	!	!	!	!	!	!	!	!	!	!LO:LB:g=original	!
=98	=98	=98	=98	=98	=98	=98	=98	=98	=98	=98	=98	=98	=98	=98	=98	=98	=98	=98	=98	=98
4F#\	6: 5:	.	4A/ 4d/	.	8a\L	.	2F#\	in	in	2d\	in	in	2a\	in	in	2cc\	in	in	2.d/	2.a\
.	.	.	.	.	8cc\	.	.	.	.	.	.	.	.	.	.	.	.	.	.	.
4F#\	.	.	4A/ 4d/	.	8cc\	.	.	.	.	.	.	.	.	.	.	.	.	.	.	.
.	.	.	.	.	8a\	.	.	.	.	.	.	.	.	.	.	.	.	.	.	.
4F#\	.	.	4A/ 4d/	.	8cc\	.	4F#\	ae-	ae-	4d\	ae-	ae-	4a\	ae-	ae-	4cc\	ae-	ae-	.	.
.	.	.	.	.	8dd\J	.	.	.	.	.	.	.	.	.	.	.	.	.	.	.
!	!	!	!	!	!	!	!	!	!	!	!	!	!LO:LB:g=original	!	!	!	!	!	!	!LO:LB:g=original
=99	=99	=99	=99	=99	=99	=99	=99	=99	=99	=99	=99	=99	=99	=99	=99	=99	=99	=99	=99	=99
!	!	!	!	!	!	!	!LO:SIC:o=(>4G\	!	!	!	!	!	!	!	!	!	!	!	!	!
4G\	.	.	4B/ 4d/	.	8b\L	.	4G	-ter-	-ter-	2d\	-ter-	-ter-	2g\	-ter-	-ter-	2b\	-ter-	-ter-	2B/	2g\
.	.	.	.	.	16cc\L	.	.	.	.	.	.	.	.	.	.	.	.	.	.	.
.	.	.	.	.	16b\JJ	.	.	.	.	.	.	.	.	.	.	.	.	.	.	.
!	!	!	!	!	!	!	!LO:SIC:o=4B\)	!	!	!	!	!	!	!	!	!	!	!	!	!
4B\	6 x	.	4B/ 4d/	.	8g/L	.	4B	.	.	.	.	.	.	.	.	.	.	.	.	.
.	.	.	.	.	8a/	.	.	.	.	.	.	.	.	.	.	.	.	.	.	.
4B\	.	.	4B/ 4d/	.	8b/	.	4B\	-num	-num	4d\	-num	-num	4g\	-num	-num	4dd\	-num	-num	4g\	4b\
.	.	.	.	.	8g/J	.	.	.	.	.	.	.	.	.	.	.	.	.	.	.
=100	=100	=100	=100	=100	=100	=100	=100	=100	=100	=100	=100	=100	=100	=100	=100	=100	=100	=100	=100	=100
4c\	6: x	.	4c/ 4e/	.	8a/L	.	2c\	tes-	tes-	2c\	teſ-	teſ-	2a\	teſ-	teſ-	2ee\	teſ-	teſ-	2.a\	2.cc\
.	.	.	.	.	8cc/	.	.	.	.	.	.	.	.	.	.	.	.	.	.	.
4c\	.	.	4c/ 4e/	.	8cc/	.	.	.	.	.	.	.	.	.	.	.	.	.	.	.
.	.	.	.	.	8a/	.	.	.	.	.	.	.	.	.	.	.	.	.	.	.
4c\	.	.	4c/ 4e/	.	8e/	.	4c\	-ta-	-ta-	4c\	-ta-	-ta-	4a\	-ta-	-ta-	4ee\	-ta-	-ta-	.	.
.	.	.	.	.	8a/J	.	.	.	.	.	.	.	.	.	.	.	.	.	.	.
!	!	!	!	!	!	!	!LO:LB:g=original	!	!	!	!	!	!	!	!	!	!	!	!	!
=101	=101	=101	=101	=101	=101	=101	=101	=101	=101	=101	=101	=101	=101	=101	=101	=101	=101	=101	=101	=101
4B\	6: x	.	4B/ 4d/	.	16g/LL	.	2B\	-men-	-men-	2d\	-men-	-men-	2g\	-men-	-men-	2dd\	-men-	-men-	2.g\	2.b\
.	.	.	.	.	16f#/	.	.	.	.	.	.	.	.	.	.	.	.	.	.	.
.	.	.	.	.	16e/	.	.	.	.	.	.	.	.	.	.	.	.	.	.	.
.	.	.	.	.	16d/JJ	.	.	.	.	.	.	.	.	.	.	.	.	.	.	.
4B\	.	.	4B/ 4d/	.	8g\L	.	.	.	.	.	.	.	.	.	.	.	.	.	.	.
.	.	.	.	.	8b\	.	.	.	.	.	.	.	.	.	.	.	.	.	.	.
4B\	.	.	4b\	.	8dd\	.	4B\	-tum	-tum	4d\	-tu(m)	-tum	4g\	-tum	-tum	4dd\	-tum	-tum	.	.
.	.	.	.	.	8gg\J	.	.	.	.	.	.	.	.	.	.	.	.	.	.	.
!	!	!	!LO:LB:g=original	!	!	!	!	!	!	!	!	!	!	!	!	!	!	!	!	!
=102	=102	=102	=102	=102	=102	=102	=102	=102	=102	=102	=102	=102	=102	=102	=102	=102	=102	=102	=102	=102
4c\	6 x	.	8cc\L	.	8ee\L	.	4c\	ſu-	ſu-	4e\	ſu-	ſu-	4a\	ſu-	ſu-	4cc\	ſu-	ſu-	4a\	4cc\
.	.	.	8a\J	.	16dd\L	.	.	.	.	.	.	.	.	.	.	.	.	.	.	.
.	.	.	.	.	16\ccJJ	.	.	.	.	.	.	.	.	.	.	.	.	.	.	.
4d\	x 4	.	4g/	.	4b\	.	4d\	.	.	2d\	.	.	4g\	.	.	4b\	.	.	4g\	4b\
4D\	x 3	.	4f#/	.	4a\	.	4D\	.	.	.	.	.	4f#\	.	.	4a\	.	.	4d/	4a\
!	!	!	!	!	!LO:LB:g=original	!	!	!	!	!	!	!	!	!	!	!	!	!	!	!
=103	=103	=103	=103	=103	=103	=103	=103	=103	=103	=103	=103	=103	=103	=103	=103	=103	=103	=103	=103	=103
!	!	!	!LO:SIC:o=2.B/ 2.d/	!	!	!	!	!	!	!	!	!	!	!	!	!	!	!	!	!
[<2.GG/	.	.	[2.B [2.d	.	4b\	.	4G\	-um	-um.	4d\	-um	-um.	4g\	-um	-um.	4b\	-um	-um.	2.B/	2.g\
.	.	.	.	.	8dd\L	.	4r	.	.	4r	.	.	4r	.	.	4r	.	.	.	.
.	.	.	.	.	8b\	.	.	.	.	.	.	.	.	.	.	.	.	.	.	.
.	.	.	.	.	8dd\	.	4r	.	.	4r	.	.	4r	.	.	4r	.	.	.	.
.	.	.	.	.	8ee\J	.	.	.	.	.	.	.	.	.	.	.	.	.	.	.
!LO:LB:g=original	!	!	!	!	!	!	!	!	!	!	!	!	!	!	!	!	!	!	!	!
=104	=104	=104	=104	=104	=104	=104	=104	=104	=104	=104	=104	=104	=104	=104	=104	=104	=104	=104	=104	=104
!	!	!	!LO:SIC:o=2.B/ 2.d/	!	!	!	!	!	!	!	!	!	!	!	!	!	!	!	!	!
2.GG/_<	.	.	2.B_ 2.d_	.	8dd\L	.	0.r	.	.	0.r	.	.	0.r	.	.	1.r	.	.	2.B/	2.g\
.	.	.	.	.	8cc\	.	.	.	.	.	.	.	.	.	.	.	.	.	.	.
.	.	.	.	.	8dd\	.	.	.	.	.	.	.	.	.	.	.	.	.	.	.
.	.	.	.	.	8b\J	.	.	.	.	.	.	.	.	.	.	.	.	.	.	.
.	.	.	.	.	8g/L	.	.	.	.	.	.	.	.	.	.	.	.	.	.	.
.	.	.	.	.	16aL/	.	.	.	.	.	.	.	.	.	.	.	.	.	.	.
.	.	.	.	.	16bJJ/	.	.	.	.	.	.	.	.	.	.	.	.	.	.	.
=105	=105	=105	=105	=105	=105	=105	=105	=105	=105	=105	=105	=105	=105	=105	=105	=105	=105	=105	=105	=105
!	!	!	!LO:SIC:o=2.B/ 2.d/	!	!	!	!	!	!	!	!	!	!	!	!	!	!	!	!	!
2.GG/_<	.	.	2.B_ 2.d_	.	8g/L	.	.	.	.	.	.	.	.	.	.	.	.	.	2.B/	2.g\
.	.	.	.	.	8b/J	.	.	.	.	.	.	.	.	.	.	.	.	.	.	.
.	.	.	.	.	8dd\L	.	.	.	.	.	.	.	.	.	.	.	.	.	.	.
.	.	.	.	.	8b\	.	.	.	.	.	.	.	.	.	.	.	.	.	.	.
.	.	.	.	.	8dd\	.	.	.	.	.	.	.	.	.	.	.	.	.	.	.
.	.	.	.	.	8ee\J	.	.	.	.	.	.	.	.	.	.	.	.	.	.	.
=106	=106	=106	=106	=106	=106	=106	=106	=106	=106	=106	=106	=106	=106	=106	=106	=106	=106	=106	=106	=106
!	!	!	!LO:SIC:o=2.B/ 2.d/	!	!	!	!	!	!	!	!	!	!	!	!	!	!	!	!	!
2.GG/]	.	.	2.B] 2.d]	.	8dd\L	.	.	.	.	.	.	.	.	.	.	2.r	.	.	2.B/	2.g\
.	.	.	.	.	8cc\	.	.	.	.	.	.	.	.	.	.	.	.	.	.	.
.	.	.	.	.	8dd\	.	.	.	.	.	.	.	.	.	.	.	.	.	.	.
.	.	.	.	.	8b\J	.	.	.	.	.	.	.	.	.	.	.	.	.	.	.
.	.	.	.	.	4g/	.	.	.	.	.	.	.	.	.	.	.	.	.	.	.
!	!	!	!	!	!	!	!	!	!	!	!	!	!	!	!	!LO:LB:g=original	!	!	!	!
=107	=107	=107	=107	=107	=107	=107	=107	=107	=107	=107	=107	=107	=107	=107	=107	=107	=107	=107	=107	=107
!	!	!	!	!LO:MO:mod=!LO&colon;DY&colon;ed=brack	!	!	!	!	!	!	!	!	!	!	!	!	!	!	!	!
!	!	!	!	!null	!	!	!	!	!	!	!	!	!	!	!	!LO:MO:mod=!LO&colon;TX&colon;a&colon;i&colon;t=Solo	!	!	!	!
!	!	!LO:DY:a:rj:t=p.:mod=%s	!	!LO:MO:null:mod=p	!	!LO:DY:a:rj:t=p.:mod=%s	!	!	!	!	!	!	!	!	!	!LO:TX:a:t=Solo	!	!	!	!
4GG/	.	p	4B/ 4d/	.	8b\L	p	.	.	.	.	.	.	.	.	.	8b\L	Glo-	Glo-	0.r	0.r
.	.	.	.	.	8dd\J	.	.	.	.	.	.	.	.	.	.	8dd\J	.	.	.	.
4G\	.	.	4B/ 4d/	.	8dd\L	.	.	.	.	.	.	.	.	.	.	8dd\L	-ri-	-ri-	.	.
.	.	.	.	.	8ee\	.	.	.	.	.	.	.	.	.	.	8ee\J	.	.	.	.
4G\	.	.	4B/ 4d/	.	8ff#	.	.	.	.	.	.	.	.	.	.	8ff#\L	-a	-a	.	.
.	.	.	.	.	8gg\J	.	.	.	.	.	.	.	.	.	.	8gg\J	.	.	.	.
=108	=108	=108	=108	=108	=108	=108	=108	=108	=108	=108	=108	=108	=108	=108	=108	=108	=108	=108	=108	=108
4G\	6: 4:	.	4c/ 4e/	.	8ff#\L	.	0.r	.	.	0.r	.	.	0.r	.	.	4ee\	pa-	Pa-	.	.
.	.	.	.	.	8ee\	.	.	.	.	.	.	.	.	.	.	.	.	.	.	.
4G\	.	.	4c/ 4e/	.	8ee\	.	.	.	.	.	.	.	.	.	.	4ee\	-tri	-tri	.	.
.	.	.	.	.	8cc\	.	.	.	.	.	.	.	.	.	.	.	.	.	.	.
4G\	.	.	4c/ 4e/	.	8gg\	.	.	.	.	.	.	.	.	.	.	8gg\L	et	et	.	.
.	.	.	.	.	8ee\J	.	.	.	.	.	.	.	.	.	.	8ee\J	.	.	.	.
=109	=109	=109	=109	=109	=109	=109	=109	=109	=109	=109	=109	=109	=109	=109	=109	=109	=109	=109	=109	=109
4G\	x 3:	.	4B/ 4d/	.	8ee\L	.	.	.	.	.	.	.	.	.	.	8ee\	fi-	Fi-	.	.
.	.	.	.	.	8dd\J	.	.	.	.	.	.	.	.	.	.	8dd\	-li-	-li-	.	.
4G\	.	.	4B/ 4d/	.	4dd\	.	.	.	.	.	.	.	.	.	.	4dd\	-o	-o	.	.
4G\	.	.	4B/ 4d/	.	8cc\L	.	.	.	.	.	.	.	.	.	.	8cc\	et	et	.	.
.	.	.	.	.	8b\J	.	.	.	.	.	.	.	.	.	.	8b\	spi-	Spi-	.	.
!	!	!	!	!	!LO:LB:g=original	!	!	!	!	!	!	!	!	!	!	!	!	!	!	!
=110	=110	=110	=110	=110	=110	=110	=110	=110	=110	=110	=110	=110	=110	=110	=110	=110	=110	=110	=110	=110
4F#\	6: 5:	.	4A/ 4d/	.	8aL/	.	.	.	.	.	.	.	.	.	.	4a\	-ri-	-ri-	.	.
.	.	.	.	.	16aL/	.	.	.	.	.	.	.	.	.	.	.	.	.	.	.
.	.	.	.	.	16gJJ/	.	.	.	.	.	.	.	.	.	.	.	.	.	.	.
4F#\	.	.	4A/ 4d/	.	8a\L	.	.	.	.	.	.	.	.	.	.	8a\L	-tu-	-tu-	.	.
.	.	.	.	.	8cc\	.	.	.	.	.	.	.	.	.	.	8cc\J	.	.	.	.
4G\	x 3	.	4B/ 4d/	.	8b\	.	.	.	.	.	.	.	.	.	.	8b\L	-i	-i	.	.
.	.	.	.	.	8dd\J	.	.	.	.	.	.	.	.	.	.	8dd\J	.	.	.	.
=111	=111	=111	=111	=111	=111	=111	=111	=111	=111	=111	=111	=111	=111	=111	=111	=111	=111	=111	=111	=111
4c\	6 x	.	8e/L	.	8ee\L	.	.	.	.	.	.	.	.	.	.	8ee\L	ſanc-	San-	1.r	1.r
.	.	.	8a/J	.	16ddL\	.	.	.	.	.	.	.	.	.	.	8cc\J	.	.	.	.
.	.	.	.	.	16ccJJ\	.	.	.	.	.	.	.	.	.	.	.	.	.	.	.
!	!	!	!	!	!	!	!	!	!	!	!	!	!	!	!	!LO:LB:g=original	!	!	!	!
4d\	x 4	.	4g/	.	4b\	.	.	.	.	.	.	.	.	.	.	4b\	.	.	.	.
4D\	x 3	.	4f#/	.	4a\	.	.	.	.	.	.	.	.	.	.	4a\	.	.	.	.
=112	=112	=112	=112	=112	=112	=112	=112	=112	=112	=112	=112	=112	=112	=112	=112	=112	=112	=112	=112	=112
4G\	.	.	8g/L	.	8b\L	.	2.r	.	.	2.r	.	.	2.r	.	.	4b\	-to	-cto	.	.
.	.	.	16a/L	.	16cc\L	.	.	.	.	.	.	.	.	.	.	.	.	.	.	.
.	.	.	16b/JJ	.	16dd\JJ	.	.	.	.	.	.	.	.	.	.	.	.	.	.	.
!	!	!	!	!	!	!LO:DY:a:rj:t=for:mod= 	!	!	!	!	!	!	!	!	!	!	!	!	!	!
4r	.	.	8cc\L	.	8eeL\	f	.	.	.	.	.	.	.	.	.	4r	.	.	.	.
!	!	!	!	!LO:MO:mod=!LO&colon;DY&colon;ed=brack	!	!	!	!	!	!	!	!	!	!	!	!	!	!	!	!
!	!	!	!	!null	!	!	!	!	!	!	!	!	!	!	!	!	!	!	!	!
!	!	!	!	!LO:MO:null:mod=f	!	!LO:MO:null:mod=f	!	!	!	!	!	!	!	!	!	!	!	!	!	!
.	.	.	8b\	.	8dd\	.	.	.	.	.	.	.	.	.	.	.	.	.	.	.
4r	.	.	8cc\	.	8ee\	.	.	.	.	.	.	.	.	.	.	4r	.	.	.	.
.	.	.	8a\J	.	8ff#\J	.	.	.	.	.	.	.	.	.	.	.	.	.	.	.
!	!	!	!LO:LB:g=original	!	!	!	!	!	!	!	!	!	!	!	!	!	!	!	!	!
=113	=113	=113	=113	=113	=113	=113	=113	=113	=113	=113	=113	=113	=113	=113	=113	=113	=113	=113	=113	=113
!!LO:TX:a:t=:mod= Tutti
!	!	!LO:MO:mod=!LO&colon;DY&colon;ed=brack	!	!	!	!	!	!	!	!	!	!	!	!	!	!	!	!	!	!
!	!	!null	!	!	!	!	!	!	!	!	!	!	!	!	!	!	!	!	!	!
!LO:TX:a:t=Tutti:rj:mod=	!	!LO:MO:null:mod=f	!	!	!	!	!LO:SIC:o=(>4G\	!	!	!	!	!	!	!	!	!	!	!	!	!
4G\	.	.	4b/	.	4gg\	.	4G	ſi-	ſi-	2d\	ſi-	ſi-	2b\	ſi-	ſi-	2gg\	ſi-	ſi-	4g\	4b\
!	!	!	!	!	!	!	!LO:SIC:o=4d\)	!	!	!	!	!	!	!	!	!	!	!	!	!
4d\	x 4	.	8b/L	.	8bb\L	.	4d	.	.	.	.	.	.	.	.	.	.	.	4g\	4b\
.	.	.	8g/	.	8gg\	.	.	.	.	.	.	.	.	.	.	.	.	.	.	.
4D\	x 3	.	8a/	.	8aa\	.	4D\	-cut	-cut	4d\	-cut	-cut	4a\	-cut	-cut	4ff#\	-cut	-cut	4d/	4a\
.	.	.	8f#/J	.	8ff#\J	.	.	.	.	.	.	.	.	.	.	.	.	.	.	.
!LO:LB:g=original	!	!	!	!	!	!	!	!	!	!	!	!	!	!	!	!	!	!	!LO:LB:g=original	!
=114	=114	=114	=114	=114	=114	=114	=114	=114	=114	=114	=114	=114	=114	=114	=114	=114	=114	=114	=114	=114
4G\	.	.	8g/L	.	8gg\L	.	4G\	e-	e-	4d\	e-	e-	4b\	e-	e-	4gg\	e-	e-	4B/	4g\
.	.	.	16g/L	.	16gg\L	.	.	.	.	.	.	.	.	.	.	.	.	.	.	.
.	.	.	16f#/JJ	.	16ff#\JJ	.	.	.	.	.	.	.	.	.	.	.	.	.	.	.
4GG/	.	.	8g/L	.	8gg\L	.	4G\	-rat	-rat	4d\	-rat	-rat	4b\	-rat	-rat	4gg\	-rat	-rat	4B/	4g\
.	.	.	8b/J	.	8bb\J	.	.	.	.	.	.	.	.	.	.	.	.	.	.	.
4r	.	.	8d/L	.	8dd\L	.	4r	.	.	4r	.	.	4r	.	.	4r	.	.	4r	4r
.	.	.	16e/L	.	16ee\L	.	.	.	.	.	.	.	.	.	.	.	.	.	.	.
.	.	.	16f#/JJ	.	16ff#JJ\	.	.	.	.	.	.	.	.	.	.	.	.	.	.	.
!	!	!	!	!	!	!	!	!	!	!LO:PB:g=original	!	!	!	!	!	!	!	!	!	!LO:LB:g=original
=115	=115	=115	=115	=115	=115	=115	=115	=115	=115	=115	=115	=115	=115	=115	=115	=115	=115	=115	=115	=115
!	!	!	!	!	!	!	!LO:SIC:o=(>4G\	!	!	!	!	!	!	!	!	!	!	!	!	!
4G\	.	.	8g/L	.	8gg\L	.	4G	in	in	2d\	in	in	2b\	in	in	2gg\	in	in	4g\	4b\
.	.	.	8b/	.	8bb\	.	.	.	.	.	.	.	.	.	.	.	.	.	.	.
!	!	!	!	!	!	!	!LO:SIC:o=4d\)	!	!	!	!	!	!	!	!	!	!	!	!	!
4d\	x 4	.	8b/	.	8bb\	.	4d	.	.	.	.	.	.	.	.	.	.	.	4g\	4b\
.	.	.	8g/	.	8gg\	.	.	.	.	.	.	.	.	.	.	.	.	.	.	.
4D\	x 3	.	8a/	.	8aa\	.	4D\	prin-	prin-	4d\	prin-	prin-	4a\	prin-	prin-	4ff#\	prin-	prin-	4d/	4a\
.	.	.	8f#/J	.	8ff#\J	.	.	.	.	.	.	.	.	.	.	.	.	.	.	.
!	!	!	!	!	!	!	!	!	!	!	!	!	!LO:LB:g=original	!	!	!	!	!	!	!
=116	=116	=116	=116	=116	=116	=116	=116	=116	=116	=116	=116	=116	=116	=116	=116	=116	=116	=116	=116	=116
4G\	.	.	8g/L	.	8gg\L	.	8G\	-ci-	-ci-	8d\	-ci-	-ci-	8b\	-ci-	-ci-	8gg\	-ci-	-ci-	4B/	4g\
.	.	.	16g/L	.	16gg\L	.	8G\	-pi-	-pi-	8d\	-pi-	-pi-	8b\	-pi-	-pi-	8gg\	-pi-	-pi-	.	.
.	.	.	16f#/JJ	.	16ff#\JJ	.	.	.	.	.	.	.	.	.	.	.	.	.	.	.
4GG/	.	.	8g/L	.	8gg\L	.	4G\	-o	-o	4d\	-o	-o	4b\	-o	-o	4gg\	-o	-o	4B/	4g\
.	.	.	8b/	.	8bb\	.	.	.	.	.	.	.	.	.	.	.	.	.	.	.
4r	.	.	8d/	.	8dd\	.	4r	.	.	4r	.	.	4r	.	.	4r	.	.	4r	4r
.	.	.	8f#/J	.	8ff#J\	.	.	.	.	.	.	.	.	.	.	.	.	.	.	.
!	!	!	!	!	!LO:LB:g=original	!	!	!	!	!	!	!	!	!	!	!	!	!	!	!
=117	=117	=117	=117	=117	=117	=117	=117	=117	=117	=117	=117	=117	=117	=117	=117	=117	=117	=117	=117	=117
4G\	.	.	4g/	.	4gg\	.	4G\	et	et	4d\	et	et	4g\	et	et	4b\	et	et	2.B/	2.g\
4G\	.	.	4d/ 4b/	.	8gg\L	.	4G\	nunc	nunc	4d\	nunc	nunc	4g\	nunc	nunc	4b\	nunc	nunc	.	.
.	.	.	.	.	8ff#\	.	.	.	.	.	.	.	.	.	.	.	.	.	.	.
!	!	!	!	!	!	!	!LO:LB:g=original	!	!	!	!	!	!	!	!	!	!	!	!	!
4G\	.	.	4d/ 4b/	.	8gg\	.	4G\	et	et	4d\	et	et	4g\	et	et	4b\	et	et	.	.
.	.	.	.	.	8bb\J	.	.	.	.	.	.	.	.	.	.	.	.	.	.	.
!	!	!	!	!	!	!	!	!	!	!	!	!	!	!	!	!LO:LB:g=original	!	!	!	!
=118	=118	=118	=118	=118	=118	=118	=118	=118	=118	=118	=118	=118	=118	=118	=118	=118	=118	=118	=118	=118
4F#\	6: 5:	.	4d/ 4a/	.	4ddd\	.	4F#\	ſem-	ſem-	4d\	ſem-	ſem-	4a\	ſem-	ſem-	4cc\	ſem-	ſem-	2.d/	2.a\
4F#\	.	.	4d/ 4a/	.	8ddd\L	.	4F#\	-per	-per	4d\	-per	-per	4a\	-per	-per	4cc\	-per	-per	.	.
.	.	.	.	.	8ccc\J	.	.	.	.	.	.	.	.	.	.	.	.	.	.	.
*	*	*	*	*	*	*	*	*	*	*	*	*	*	*	*	*	*ij	*ij	*	*
4F#\	.	.	4d/ 4a/	.	8aa\L	.	4F#\	et	et	4d\	et	et	4a\	et	et	4cc\	et	et	.	.
.	.	.	.	.	16bb\L	.	.	.	.	.	.	.	.	.	.	.	.	.	.	.
.	.	.	.	.	16ccc\JJ	.	.	.	.	.	.	.	.	.	.	.	.	.	.	.
=119	=119	=119	=119	=119	=119	=119	=119	=119	=119	=119	=119	=119	=119	=119	=119	=119	=119	=119	=119	=119
4G\	.	.	4d/ 4b/	.	8bb\L	.	8G\	nunc	nunc	8d\	nunc	nunc	8g\	nunc	nunc	8b\	nunc	nunc	2g\	2b\
.	.	.	.	.	8ddd\J	.	8G\	et	et	8d\	et	et	8g\	et	et	8b\	et	et	.	.
4d\	x 4	.	8b/L	.	8bb\L	.	(>4d\	ſem-	ſem-	2d\	ſem-	ſem-	(>4g\	ſem-	ſem-	(>4b\	ſem-	ſem-	.	.
.	.	.	8g/	.	8gg\	.	.	.	.	.	.	.	.	.	.	.	.	.	.	.
4D\	x 3	.	8a/	.	8aa\	.	4D\)	.	.	.	.	.	4f#\)	.	.	4a\)	.	.	4d/	4a\
.	.	.	8f#/J	.	8ff#\J	.	.	.	.	.	.	.	.	.	.	.	.	.	.	.
=120	=120	=120	=120	=120	=120	=120	=120	=120	=120	=120	=120	=120	=120	=120	=120	=120	=120	=120	=120	=120
4G\	.	.	4g/	.	4gg\	.	4G\	-per	-per	4d\	-per	-per	4g\	-per	-per	4b\	-per	-per	4B/	4g\
*	*	*	*	*	*	*	*	*	*	*	*	*	*	*	*	*	*Xij	*Xij	*	*
8G|>\L	.	.	8g/L	.	8g/L	.	8G\L	et	et	8G/L	et	et	8g\L	et	et	8g\L	et	et	4r	4r
8A|>\	.	.	8a/	.	8a/	.	8A\J	.	.	8A/J	.	.	8a\J	.	.	8a\J	.	.	.	.
8B|>\	.	.	8b/	.	8b/	.	8B\L	in	in	8B\L	in	in	8b\L	in	in	8b\L	in	in	4r	4r
8c|>\J	.	.	8cc/J	.	8cc/J	.	8c\J	.	.	8c\J	.	.	8cc\J	.	.	8cc\J	.	.	.	.
!	!	!	!LO:LB:g=original	!	!	!	!	!	!	!	!	!	!	!	!	!	!	!	!	!
=121	=121	=121	=121	=121	=121	=121	=121	=121	=121	=121	=121	=121	=121	=121	=121	=121	=121	=121	=121	=121
4d|>\	.	.	4dd\	.	4dd\	.	4d\	ſae-	ſae-	4d\	ſae-	ſae-	4dd\	ſae-	ſae-	4dd\	ſae-	ſae-	1.r	1.r
8d|>\L	.	.	8dd\L	.	8dd\L	.	8d\L	-cu-	-cu-	8d\L	-cu-	-cu-	8dd\L	-cu-	-cu-	8dd\L	-cu-	-cu-	.	.
8B|>\	.	.	8b\	.	8b\	.	8B\J	.	.	8B\J	.	.	8b\J	.	.	8b\J	.	.	.	.
!	!	!	!	!	!	!	!	!	!	!LO:LB:g=original	!	!	!	!	!	!	!	!	!	!
8c|>\	.	.	8cc\	.	8cc\	.	8c\L	-la	-la	8c\L	-la	-la	8cc\L	-la	-la	8cc\L	-la	-la	.	.
8e|>\J	.	.	8ee\J	.	8ee\J	.	8e\J	.	.	8e\J	.	.	8ee\J	.	.	8ee\J	.	.	.	.
!	!	!	!	!	!	!	!	!	!	!	!	!	!LO:LB:g=original	!	!	!	!	!	!	!
=122	=122	=122	=122	=122	=122	=122	=122	=122	=122	=122	=122	=122	=122	=122	=122	=122	=122	=122	=122	=122
!	!	!	!LO:MO:mod=*null:null	!	!	!	!	!	!	!	!	!	!	!	!	!	!	!	!	!
*	*	*	*2\right	*	*	*	*	*	*	*	*	*	*	*	*	*	*	*	*	*
2d|>\	.	.	2dd\	.	2dd\	.	2d\	ſae-	ſae-	2d\	ſae-	ſae-	2dd\	ſae-	ſae-	2dd\	ſae-	ſae-	.	.
8B|>\L	.	.	8b/L	.	8b/L	.	8B\L	cu-	cu-	8B\L	cu-	cu-	8b\L	cu-	cu-	8b\L	cu-	cu-	.	.
8G|>\J	.	.	8g/J	.	8g/J	.	8G\J	.	.	8G\J	.	.	8g\J	.	.	8g\J	.	.	.	.
!LO:LB:g=original	!	!	!	!	!	!	!	!	!	!	!	!	!	!	!	!LO:LB:g=original	!	!	!	!
=123	=123	=123	=123	=123	=123	=123	=123	=123	=123	=123	=123	=123	=123	=123	=123	=123	=123	=123	=123	=123
8F#|>\L	.	.	8f#/L	.	8f#/L	.	8F#\	-lo-	-lo-	8F#/	-lo-	-lo-	8f#\	-lo-	-lo-	8f#/	-lo-	-lo-	2.r	2.r
8A|>\J	.	.	8a/J	.	8a/J	.	8A\	-rum	-rum	8A\	-rum	-rum	8a\	-rum	-rum	8a\	-rum	-rum	.	.
4D\	.	.	4d/	.	4d/	.	4D\	a-	a-	4D/	a-	a-	4d\	a-	a-	4d/	a-	a-	.	.
8E|>\L	.	.	8e/L	.	8e/L	.	8E\L	.	.	8E/L	.	.	8e\L	.	.	8e/L	.	.	.	.
8F#|>\J	.	.	8f#/J	.	8f#/J	.	8F#\J	.	.	8F#/J	.	.	8f#\J	.	.	8f#/J	.	.	.	.
!	!	!	!	!	!	!	!LO:LB:g=original	!	!	!	!	!	!	!	!	!	!	!	!	!
=124	=124	=124	=124	=124	=124	=124	=124	=124	=124	=124	=124	=124	=124	=124	=124	=124	=124	=124	=124	=124
!LO:SIC:o=2.G\	!	!	!LO:SIC:o=2.B/ 2.d/	!	!	!	!	!	!	!	!	!	!	!	!	!	!	!	!	!
[2.G	.	.	[2.B [2.d	.	8g/L	.	4G\	-men	-men.	4G/	-men	-men.	4g\	-men	-men.	4g\	-men	-men.	2.B/	2.g\
.	.	.	.	.	8b/J	.	.	.	.	.	.	.	.	.	.	.	.	.	.	.
!	!	!	!	!	!LO:LB:g=original	!	!	!	!	!	!	!	!	!	!	!	!	!	!	!
.	.	.	.	.	8dd\L	.	4r	.	.	4r	.	.	4r	.	.	4r	.	.	.	.
.	.	.	.	.	16eeL\	.	.	.	.	.	.	.	.	.	.	.	.	.	.	.
.	.	.	.	.	16dd\JJ	.	.	.	.	.	.	.	.	.	.	.	.	.	.	.
.	.	.	.	.	8b\L	.	4r	.	.	4r	.	.	4r	.	.	4r	.	.	.	.
.	.	.	.	.	8cc\J	.	.	.	.	.	.	.	.	.	.	.	.	.	.	.
=125	=125	=125	=125	=125	=125	=125	=125	=125	=125	=125	=125	=125	=125	=125	=125	=125	=125	=125	=125	=125
!LO:SIC:o=2.G\	!	!	!LO:SIC:o=2.B/ 2.d/	!	!	!	!	!	!	!	!	!	!	!	!	!	!	!	!	!
2.G_	.	.	2.B_ 2.d_	.	8dd\L	.	1.r	.	.	1.r	.	.	1.r	.	.	1.r	.	.	2.B/	2.g\
.	.	.	.	.	16ee\L	.	.	.	.	.	.	.	.	.	.	.	.	.	.	.
.	.	.	.	.	16dd\JJ	.	.	.	.	.	.	.	.	.	.	.	.	.	.	.
.	.	.	.	.	8b/L	.	.	.	.	.	.	.	.	.	.	.	.	.	.	.
.	.	.	.	.	8g/	.	.	.	.	.	.	.	.	.	.	.	.	.	.	.
.	.	.	.	.	8a/	.	.	.	.	.	.	.	.	.	.	.	.	.	.	.
.	.	.	.	.	8b/J	.	.	.	.	.	.	.	.	.	.	.	.	.	.	.
!	!	!	!	!	!	!	!	!	!	!	!	!	!	!	!	!	!	!	!LO:LB:g=original	!
=126	=126	=126	=126	=126	=126	=126	=126	=126	=126	=126	=126	=126	=126	=126	=126	=126	=126	=126	=126	=126
!LO:SIC:o=2.G\	!	!	!LO:SIC:o=2.B/ 2.d/	!	!	!	!	!	!	!	!	!	!	!	!	!	!	!	!	!
2.G_	.	.	2.B_ 2.d_	.	8g/L	.	.	.	.	.	.	.	.	.	.	.	.	.	2.B/	2.g\
.	.	.	.	.	8b/J	.	.	.	.	.	.	.	.	.	.	.	.	.	.	.
.	.	.	.	.	8dd\L	.	.	.	.	.	.	.	.	.	.	.	.	.	.	.
.	.	.	.	.	16ee\L	.	.	.	.	.	.	.	.	.	.	.	.	.	.	.
.	.	.	.	.	16dd\JJ	.	.	.	.	.	.	.	.	.	.	.	.	.	.	.
.	.	.	.	.	8b\L	.	.	.	.	.	.	.	.	.	.	.	.	.	.	.
.	.	.	.	.	8cc\J	.	.	.	.	.	.	.	.	.	.	.	.	.	.	.
=127	=127	=127	=127	=127	=127	=127	=127	=127	=127	=127	=127	=127	=127	=127	=127	=127	=127	=127	=127	=127
!LO:SIC:o=4G\	!	!	!LO:SIC:o=2B/ 2d/	!	!	!	!	!	!	!	!	!	!	!	!	!	!	!	!	!
4G]	.	.	2B] 2d]	.	8dd\L	.	2.r	.	.	2.r	.	.	2.r	.	.	2.r	.	.	4B/	4g\
.	.	.	.	.	8b\J	.	.	.	.	.	.	.	.	.	.	.	.	.	.	.
4GG/	.	.	.	.	4g/	.	.	.	.	.	.	.	.	.	.	.	.	.	4B/	4g\
4r	.	.	4r	.	4r	.	.	.	.	.	.	.	.	.	.	.	.	.	4r	4r
==	==	==	==	==	==	==	==	==	==	==	==	==	==	==	==	==	==	==	==	==
*-	*-	*-	*-	*-	*-	*-	*-	*-	*-	*-	*-	*-	*-	*-	*-	*-	*-	*-	*-	*-
!!!system-decoration: [(g1)][(g2)][(g3)]<s9>
!!!RDF**kern: > = above
!!!RDF**kern: < = below
!!!RDF**kern: | = vertical stroke
!!!filter-modern: shed -k -e "s/([^a-gA-Gn#X-])[<>]/$1/g" | shed -X dynam -e "s/:a/:A/LX" | shed -e "s/TX(.*):t=P:/tx$1:t=P:/LG" | shed -e "s/:rj/:RJ/L" | sic -sq | modori -m | autostem -r | tie -s | humtr -p | shed -e "s/yy//"
!!!ENC: Filip Voros
!!!END: 2021-11-24
!!!EED: Jędrzej Mróz
!!!EEV: 2021-12-02
!!!ENC-modern: Andrzej Kubiczek
!!!END-modern: 2022-07-27
